!!!!SEGMENT: pl-kk--kk-i-1--006-005_morales-cristobal-de--missa-ave-maria-agnus-dei.krn
!!!cenid: 15xx:682
!!!COM: Morales, Cristóbal de
!!!COM-rismID: pe30002254
!!!CDT: ~1500-1553
!!!CNT: Spanish
!!!OPR: [Missa] Ave Maria
!!!OTL: Agnus Dei
!!!OMV: 005
!!!PDT:
!!!AGN:
!!!YEC: Copyright 2022 Narodowy Instytut Fryderyka Chopina (https://polishscores.org)
!!!YEM: License CC-BY-4.0 (https://creativecommons.org/licenses/by/4.0)
!!!SMS-siglum: PL-Kk
!!!SMS-shelfmark: Kk.I.1
!!!SMS-shelfwork: 006-005 M
!!!SMS-variant:
!!!SMS-altvar:
!!!NIFC-rismSourceID: 300257954
!!!NIFC-rismChildID: 300257960
!!!NIFC-islandoraID: pl-kk:1
!!!URL-pdf-islandora: https://repozytorium.nifc.pl/islandora/object/pl-kk%3A1/datastream/PDF/view
!!!URL-scan: https://polish.musicsources.pl/pl/lokalizacje/galeria/rekopisy/5736 @EN{Scan on Polish Music Sources Website} @PL{Skany w portalu Dziedzictwo Muzyki Polskiej w otwartym dostępie}
!!!IIIF: https://repozytorium.nifc.pl/islandora/object/pl-kk%3A1/datastream/IIIF/view
!!!ONB-nifc: UWAGA: Cantus (s. 41v-52v, skan 0044-0055), Altus (s. 43r-52r, skan 0235-0244), Tenor (s. 42r-51r, skan 0430-0439), Bassus (s. 40v-50v, skan 0602-0612). Części Mszy: 1. Kyrie, 2. Et in terra, 3. Patrem, 4. Sanctus, 5. Agnus Dei
!!!AIN: 5 empty 1 tenor
!!!key:
**kern	**text	**kern	**kern	**text	**kern	**text	**kern	**text	**kern	**text
*part6	*	*part5	*part4	*	*part3	*	*part2	*	*part1	*
*staff6	*	*staff5	*staff4	*	*staff3	*	*staff2	*	*staff1	*
*Iempty	*	*Iempty	*Itenor	*	*Iempty	*	*Iempty	*	*Iempty	*
*I"BASSVS	*	*I"sexta pars;	*I"TENOR	*	*I"Altus secundus	*	*I"ALTVS	*	*I"CANTVS	*
*I'B	*	*I'S.p.	*I'T	*	*I'A II	*	*I'A	*	*I'C	*
*ICvox	*	*	*ICvox	*	*	*	*ICvox	*	*ICvox	*
*M2/1	*	*M2/1	*M2/1	*	*M2/1	*	*M2/1	*	*M2/1	*
*met(C|)	*	*met(C|)	*met(C|)	*	*met(C|)	*	*met(C|)	*	*met(C|)	*
*clefF4	*	*clefC3	*clefC4	*	*clefC3	*	*clefC4	*	*clefC3	*
*k[b-]	*	*k[b-]	*k[b-]	*	*k[b-]	*	*k[b-]	*	*k[b-]	*
*F:	*	*F:	*F:	*	*F:	*	*F:	*	*F:	*
=1-	=1-	=1-	=1-	=1-	=1-	=1-	=1-	=1-	=1-	=1-
*xywh-#610:5737,537,4386,917	*	*	*xywh-#437:5749,1360,4455,1102	*	*	*	*xywh-#244:1198,537,4147,917	*	*xywh-#53:1118,575,4341,975	*
!	!	!LO:TX:t=P:problem=są adnotacje, że ma być, ale go nie ma. Jakby trzeba było, to mam przepisany ze starodruku z pierwowzorem.Mateusz Solarz. 	!	!	!	!	!	!	!	!
0B-\	A-	0ryy	00r	.	0ryy	.	00r	.	00r	.
=2-	=2-	=2-	=2-	=2-	=2-	=2-	=2-	=2-	=2-	=2-
!LO:TX:t=P:problem=kreska pseudotaktowa	!	!	!	!	!	!	!LO:TX:a:t=14	!	!	!
1F\	-gnus	0ryy	.	.	0ryy	.	.	.	.	.
1G\	De-	.	.	.	.	.	.	.	.	.
=3-	=3-	=3-	=3-	=3-	=3-	=3-	=3-	=3-	=3-	=3-
!LO:TX:t=P:problem=kreska pseudotaktowa	!	!	!	!	!	!	!	!	!LO:TX:t=P:problem=kreska pseudotaktowa	!
1G\	-i,	0ryy	0B-\	A-	0ryy	.	00r	.	00r	.
2r	.	.	.	.	.	.	.	.	.	.
!LO:TX:t=P:problem=kreska pseudotaktowa	!	!	!	!	!	!	!	!	!	!
*	*ij	*	*	*	*	*	*	*	*	*
2D/	A-	.	.	.	.	.	.	.	.	.
=4-	=4-	=4-	=4-	=4-	=4-	=4-	=4-	=4-	=4-	=4-
!	!	!	!LO:TX:t=P:problem=kreska pseudotaktowa	!	!	!	!	!	!	!
2D/	-gnus	0ryy	1F/	-gnus	0ryy	.	.	.	.	.
!LO:TX:t=P:problem=kreska pseudotaktowa	!	!	!	!	!	!	!	!	!	!
2D/	De-	.	.	.	.	.	.	.	.	.
2.E/	.	.	1G/	De-	.	.	.	.	.	.
!LO:TX:t=P:problem=kreska pseudotaktowa	!	!	!	!	!	!	!	!	!	!
4D/	.	.	.	.	.	.	.	.	.	.
=5-	=5-	=5-	=5-	=5-	=5-	=5-	=5-	=5-	=5-	=5-
!	!	!	!LO:TX:t=P:problem=kreska pseudotaktowa	!	!	!	!	!	!	!
4C/	.	0ryy	1G/	-i,	0ryy	.	00r	.	0e-X\	A-
4BB-/	.	.	.	.	.	.	.	.	.	.
1C/	.	.	.	.	.	.	.	.	.	.
.	.	.	2r	.	.	.	.	.	.	.
*	*	*	*	*ij	*	*	*	*	*	*
4BB-/	.	.	2G/	A-	.	.	.	.	.	.
!LO:TX:t=P:problem=kreska pseudotaktowa	!	!	!	!	!	!	!	!	!	!
4AA/	.	.	.	.	.	.	.	.	.	.
=6-	=6-	=6-	=6-	=6-	=6-	=6-	=6-	=6-	=6-	=6-
!	!	!	!	!	!	!	!	!	!LO:TX:t=P:problem=kreska pseudotaktowa	!
2GG/	-i,	0ryy	2G/	-gnus	0ryy	.	.	.	1B-/	-gnus
*custos:F	*	*	*	*	*	*	*	*	*	*
2G\	De-	.	1B-\	De-	.	.	.	.	.	.
*xywh-#610:5651,1351,4432,837	*	*	*	*	*	*	*	*	*	*
!LO:LB:g=original	!	!	!	!	!	!	!	!	!	!
1.F\	.	.	.	.	.	.	.	.	1c\	De-
.	.	.	4A/	.	.	.	.	.	.	.
!	!	!	!LO:TX:t=P:problem=kreska pseudotaktowa	!	!	!	!	!	!	!
.	.	.	4G/	.	.	.	.	.	.	.
=7-	=7-	=7-	=7-	=7-	=7-	=7-	=7-	=7-	=7-	=7-
!	!	!	!	!	!	!	!LO:TX:t=P:problem=kreska pseudotaktowa	!	!LO:TX:t=P:problem=kreska pseudotaktowa	!
.	.	0ryy	4A/	.	0ryy	.	0r	.	1c\	-i,
.	.	.	4B-/	.	.	.	.	.	.	.
4E\	-i	.	1c\	.	.	.	.	.	.	.
*	*Xij	*	*	*	*	*	*	*	*	*
!LO:TX:t=P:problem=kreska pseudotaktowa	!	!	!	!	!	!	!	!	!	!
4D\	.	.	.	.	.	.	.	.	.	.
2C/	qui	.	.	.	.	.	.	.	2r	.
*	*	*	*	*	*	*	*	*	*	*ij
2E\	.	.	4B-\	.	.	.	.	.	2g\	A-
!	!	!	!LO:TX:t=P:problem=kreska pseudotaktowa	!	!	!	!	!	!	!
.	.	.	4A\	.	.	.	.	.	.	.
=8-	=8-	=8-	=8-	=8-	=8-	=8-	=8-	=8-	=8-	=8-
2E\	tol-	0ryy	1G/	-i	0ryy	.	0B-\	A-	2g\	-gnus
*	*	*	*	*Xij	*	*	*	*	*	*
!LO:TX:t=P:problem=kreska pseudotaktowa	!	!	!	!	!	!	!	!	!LO:TX:t=P:problem=kreska pseudotaktowa	!
2E\	-lis	.	.	.	.	.	.	.	2g\	De-
2D/	pec-	.	2r	.	.	.	.	.	2f\	.
!	!	!	!LO:TX:t=P:problem=kreska pseudotaktowa	!	!	!	!	!	!	!
2.BB-/	-ca-	.	2B-/	qui	.	.	.	.	2.d\	.
=9-	=9-	=9-	=9-	=9-	=9-	=9-	=9-	=9-	=9-	=9-
*	*	*	*custos:B-	*	*	*	*	*	*	*
.	.	0ryy	2B-/	tol-	0ryy	.	0F/	-gnus	.	.
4AA/	-ta	.	.	.	.	.	.	.	4c\	.
*	*	*	*xywh-#437:5795,2099,4415,1085	*	*	*	*	*	*	*
!	!	!	!LO:LB:g=original	!	!	!	!	!	!	!
!	!	!	!LO:TX:t=P:problem=kreska pseudotaktowa	!	!	!	!	!	!	!
4BB-/	mun-	.	2B-/	-lis	.	.	.	.	4d\	.
!LO:TX:t=P:problem=kreska pseudotaktowa	!	!	!	!	!	!	!	!	!LO:TX:t=P:problem=kreska pseudotaktowa	!
4C/	.	.	.	.	.	.	.	.	4e\	.
1D\	-di;	.	2A/	pec-	.	.	.	.	2f\	.
.	.	.	2B-\	.	.	.	.	.	2d\	.
=10-	=10-	=10-	=10-	=10-	=10-	=10-	=10-	=10-	=10-	=10-
*	*	*	*	*	*	*	*	*	*custos:d	*
!LO:TX:t=P:problem=kreska pseudotaktowa	!	!	!LO:TX:t=P:problem=kreska pseudotaktowa	!	!	!	!LO:TX:t=P:problem=kreska pseudotaktowa	!	!LO:TX:t=P:problem=kreska pseudotaktowa	!
1C/	.	0ryy	1c\	-ca-	0ryy	.	1G/	.	1e\	-i
*	*	*	*	*	*	*	*	*	*xywh-#53:1147,1358,4353,888	*
!	!	!	!	!	!	!	!	!	!LO:LB:g=original	!
2GG/	.	.	2.B-\	-ta	.	.	1G/	De-	2.d\	A-
1G\	.	.	.	.	.	.	.	.	.	.
!	!	!	!	!	!	!	!	!	!LO:TX:t=P:problem=kreska pseudotaktowa	!
.	.	.	4A/	mun-	.	.	.	.	4c/	.
=11-	=11-	=11-	=11-	=11-	=11-	=11-	=11-	=11-	=11-	=11-
*	*	*	*	*	*	*	*lig	*	*	*
.	.	0ryy	2G/	.	0ryy	.	0d\	-i,	2B-/	-gnus
4F\	.	.	2A/	.	.	.	.	.	4A/	.
!LO:TX:t=P:problem=kreska pseudotaktowa	!	!	!	!	!	!	!	!	!	!
4E\	.	.	.	.	.	.	.	.	4G/	.
!	!	!	!LO:TX:t=P:problem=kreska pseudotaktowa	!	!	!	!	!	!	!
1D\	.	.	1F/	.	.	.	.	.	2A/	De-
!	!	!	!	!	!	!	!	!	!LO:TX:t=P:problem=kreska pseudotaktowa	!
.	.	.	.	.	.	.	.	.	2B-/	.
=12-	=12-	=12-	=12-	=12-	=12-	=12-	=12-	=12-	=12-	=12-
!	!	!	!	!	!	!	!LO:TX:t=P:problem=kreska pseudotaktowa	!	!	!
*	*	*	*	*	*	*	*	*	*lig	*
1C/	.	0ryy	2.G/	.	0ryy	.	00e\	.	1c\	-i
*	*ij	*	*	*	*	*	*	*	*	*Xij
.	.	.	4F/	.	.	.	.	.	.	.
2.E-X\	mun-	.	4G/	.	.	.	.	.	1B-/	.
.	.	.	4A/	.	.	.	.	.	.	.
.	.	.	1B-\	.	.	.	.	.	.	.
*custos:C	*	*	*	*	*	*	*	*	*	*
!LO:TX:t=P:problem=kreska pseudotaktowa	!	!	!	!	!	!	!	!	!	!
4D\	.	.	.	.	.	.	.	.	.	.
!	!	!	!	!	!	!	!	!	!LO:TX:t=P:problem=kreska pseudotaktowa	!
*	*	*	*	*	*	*	*Xlig	*	*Xlig	*
!LO:LB:g=original	!	!	!	!	!	!	!	!	!	!
=13-	=13-	=13-	=13-	=13-	=13-	=13-	=13-	=13-	=13-	=13-
*xywh-#610:5714,2073,4323,854	*	*	*	*	*	*	*	*	*	*
!	!	!	!	!	!	!	!	!	!LO:TX:t=P:problem=kreska pseudotaktowa	!
0C/	.	0ryy	.	.	0ryy	.	.	.	1r	.
.	.	.	4A/	.	.	.	.	.	.	.
!	!	!	!LO:TX:t=P:problem=kreska pseudotaktowa	!	!	!	!	!	!	!
.	.	.	4G/	.	.	.	.	.	.	.
.	.	.	2A/	.	.	.	.	.	1c\	qui
.	.	.	2G/	-di;	.	.	.	.	.	.
=14-	=14-	=14-	=14-	=14-	=14-	=14-	=14-	=14-	=14-	=14-
!LO:TX:t=P:problem=kreska pseudotaktowa	!	!	!LO:TX:t=P:problem=kreska pseudotaktowa	!	!	!	!	!	!	!
*	*	*	*	*	*	*	*	*ij	*	*
0BB-/	-di	0ryy	0B-\	.	0ryy	.	2.d\	A-	2.f\	.
*	*Xij	*	*	*	*	*	*	*	*	*
!	!	!	!	!	!	!	!	!	!LO:TX:t=P:problem=kreska pseudotaktowa	!
.	.	.	.	.	.	.	4c\	.	4e\	tol-
.	.	.	.	.	.	.	4B-\	.	1d\	-lis
.	.	.	.	.	.	.	4A/	.	.	.
.	.	.	.	.	.	.	1B-\	.	.	.
=15-	=15-	=15-	=15-	=15-	=15-	=15-	=15-	=15-	=15-	=15-
*	*	*	*custos:G	*	*	*	*	*	*	*
!	!	!	!	!	!	!	!	!	!LO:TX:t=P:problem=kreska pseudotaktowa	!
*	*	*	*	*ij	*	*	*	*	*	*
1r	.	0ryy	1F/	mun-	0ryy	.	.	.	1c\	.
!	!	!	!	!	!	!	!LO:TX:t=P:problem=kreska pseudotaktowa	!	!	!
.	.	.	.	.	.	.	2A/	-gnus	.	.
*	*	*	*xywh-#437:5823,2843,4279,1039	*	*	*	*	*	*	*
!	!	!	!LO:LB:g=original	!	!	!	!	!	!	!
0Eny\	qui	.	1G/	.	.	.	1.B-\	De-	2B-/	pec-
.	.	.	.	.	.	.	.	.	2.e\	-ca-
=16-	=16-	=16-	=16-	=16-	=16-	=16-	=16-	=16-	=16-	=16-
!	!	!	!LO:TX:t=P:problem=kreska pseudotaktowa	!	!	!	!	!	!	!
.	.	0ryy	1G/	-di	0ryy	.	.	.	.	.
.	.	.	.	.	.	.	.	.	4d\	.
*	*	*	*	*	*	*	*custos:B-	*	*	*
!	!	!	!	!	!	!	!LO:TX:t=P:problem=kreska pseudotaktowa	!	!LO:TX:t=P:problem=kreska pseudotaktowa	!
.	.	.	.	.	.	.	2G/	.	[y2B-/	-ta
*	*	*	*	*	*	*	*xywh-#244:1056,1244,4341,957	*	*	*
!	!	!	!	!	!	!	!LO:LB:g=original	!	!	!
!LO:TX:t=P:problem=kreska pseudotaktowa	!	!	!	!	!	!	!	!	!LO:N:xstem:cue	!
1BB-/	tol-	.	1d\	pec-	.	.	2.B-\	.	4B-/]	.
.	.	.	.	.	.	.	.	.	4c/	.
.	.	.	.	.	.	.	.	.	1d\	.
.	.	.	.	.	.	.	4A/	.	.	.
=17-	=17-	=17-	=17-	=17-	=17-	=17-	=17-	=17-	=17-	=17-
1C/	.	0ryy	0e\	-ca-	0ryy	.	0G/	.	.	.
.	.	.	.	.	.	.	.	.	4c/	.
*	*	*	*	*	*	*	*	*	*custos:c	*
!	!	!	!	!	!	!	!	!	!LO:TX:t=P:problem=kreska pseudotaktowa	!
.	.	.	.	.	.	.	.	.	4B-/	.
*	*	*	*	*	*	*	*	*	*xywh-#53:1188,2135,4312,823	*
!	!	!	!	!	!	!	!	!	!LO:LB:g=original	!
1C/	-lis	.	.	.	.	.	.	.	1c\	mun-
=18-	=18-	=18-	=18-	=18-	=18-	=18-	=18-	=18-	=18-	=18-
!LO:TX:t=P:problem=kreska pseudotaktowa	!	!	!LO:TX:t=P:problem=kreska pseudotaktowa	!	!	!	!LO:TX:t=P:problem=kreska pseudotaktowa	!	!	!
0GG/	pec-	0ryy	0d\	-ta	0ryy	.	0B-\	-i	2d\	-di:
*	*	*	*	*	*	*	*	*Xij	*	*ij
.	.	.	.	.	.	.	.	.	4G/	qui
!	!	!	!	!	!	!	!	!	!LO:TX:t=P:problem=kreska pseudotaktowa	!
.	.	.	.	.	.	.	.	.	4A/	.
.	.	.	.	.	.	.	.	.	4B-/	.
.	.	.	.	.	.	.	.	.	4c/	.
.	.	.	.	.	.	.	.	.	2.d\	tol-
=19-	=19-	=19-	=19-	=19-	=19-	=19-	=19-	=19-	=19-	=19-
1D\	-ca-	0ryy	1f\	mun-	0ryy	.	1F/	qui	.	.
.	.	.	.	.	.	.	.	.	4c/	.
!	!	!	!	!	!	!	!	!	!LO:TX:t=P:problem=kreska pseudotaktowa	!
.	.	.	.	.	.	.	.	.	2A/	-lis
2C/	-ta	.	2e\	.	.	.	1G/	tol-	2c/	pec-
!	!	!	!LO:TX:t=P:problem=dwie semibreves przekreślone - oznaczenie synkopy	!	!	!	!	!	!	!
2.G\	mun-	.	1d\	.	.	.	.	.	2.B-/	-ca-
=20-	=20-	=20-	=20-	=20-	=20-	=20-	=20-	=20-	=20-	=20-
!	!	!	!	!	!	!	!LO:TX:t=P:problem=kreska pseudotaktowa	!	!	!
.	.	0ryy	.	.	0ryy	.	1G/	-lis	.	.
4F\	.	.	.	.	.	.	.	.	4A/	-ta
!LO:TX:t=P:problem=kreska pseudotaktowa	!	!	!	!	!	!	!	!	!	!
2E\	.	.	1c\	.	.	.	.	.	1G/	mun-
*	*	*	*	*	*	*	*	*ij	*	*
1D\	-di	.	.	.	.	.	1d\	qui	.	.
!	!	!	!LO:TX:t=P:problem=kreska pseudotaktowa	!	!	!	!	!	!LO:TX:t=P:problem=kreska pseudotaktowa	!
.	.	.	2B-\	.	.	.	.	.	2F/	.
=21-	=21-	=21-	=21-	=21-	=21-	=21-	=21-	=21-	=21-	=21-
1C/	.	0ryy	2c\	.	0ryy	.	0e\	tol-	2G/	-di
*	*	*	*	*	*	*	*	*	*	*Xij
.	.	.	1G/	-di	.	.	.	.	2g\	pec-
*	*	*	*	*Xij	*	*	*	*	*	*
!LO:TX:t=P:problem=kreska pseudotaktowa	!	!	!	!	!	!	!	!	!	!
1E\	.	.	.	.	.	.	.	.	2g\	-ca-
!	!	!	!	!	!	!	!	!	!LO:TX:t=P:problem=kreska pseudotaktowa	!
.	.	.	1B-\	.	.	.	.	.	2g\	-ta
=22-	=22-	=22-	=22-	=22-	=22-	=22-	=22-	=22-	=22-	=22-
!	!	!	!	!	!	!	!LO:TX:t=P:problem=kreska pseudotaktowa	!	!	!
2.BB-/	mi-	0ryy	.	.	0ryy	.	0d\	-lis	2f\	mun-
*	*	*	*	*	*	*	*	*Xij	*	*
.	.	.	1F/	mi-	.	.	.	.	2d\	.
4C/	-ſe-	.	.	.	.	.	.	.	.	.
!LO:TX:t=P:problem=kreska pseudotaktowa	!	!	!	!	!	!	!	!	!LO:TX:t=P:problem=kreska pseudotaktowa	!
1D\	.	.	.	.	.	.	.	.	1f\	.
!	!	!	!LO:TX:t=P:problem=kreska pseudotaktowa	!	!	!	!	!	!	!
.	.	.	2.A/	-ſe-	.	.	.	.	.	.
=23-	=23-	=23-	=23-	=23-	=23-	=23-	=23-	=23-	=23-	=23-
*	*	*	*	*	*	*	*	*	*custos:d	*
2C/	-re-	0ryy	.	.	0ryy	.	0r	.	2e\	-di
.	.	.	4G/	-re	.	.	.	.	.	.
*	*	*	*	*	*	*	*	*	*xywh-#53:1275,2819,4248,911	*
!	!	!	!	!	!	!	!	!	!LO:LB:g=original	!
*	*	*	*	*	*	*	*	*	*	*ij
2BB-/	-re	.	2.B-\	no-	.	.	.	.	1d\	qui
*custos:D	*	*	*	*	*	*	*	*	*	*
1E\	no-	.	.	.	.	.	.	.	.	.
.	.	.	4A/	.	.	.	.	.	.	.
!	!	!	!	!	!	!	!	!	!LO:TX:t=P:problem=kreska pseudotaktowa	!
.	.	.	1G/	.	.	.	.	.	2c/	tol-
!LO:LB:g=original	!	!	!	!	!	!	!	!	!	!
=24-	=24-	=24-	=24-	=24-	=24-	=24-	=24-	=24-	=24-	=24-
*xywh-#610:5674,2750,4403,934	*	*	*	*	*	*	*	*	*	*
!LO:TX:t=P:problem=kreska pseudotaktowa	!	!	!	!	!	!	!	!	!	!
1D\	-bis	0ryy	.	.	0ryy	.	0d\	pec-	2B-/	-lis
*	*	*	*custos:B-	*	*	*	*	*	*	*
!	!	!	!LO:TX:t=P:problem=kreska pseudotaktowa	!	!	!	!	!	!	!
.	.	.	2F/	.	.	.	.	.	2A/	pec-
*	*	*	*xywh-#438:1105,526,4358,1031	*	*	*	*	*	*	*
!	!	!	!LO:PB:g=original	!	!	!	!	!	!	!
!	!	!	!LO:TX:t=P:problem=kreska pseudotaktowa	!	!	!	!	!	!	!
2r	.	.	1B-\	-bis;	.	.	.	.	2G/	-ca-
!	!	!	!	!	!	!	!	!	!LO:TX:t=P:problem=kreska pseudotaktowa	!
*	*ij	*	*	*	*	*	*	*	*	*
2G\	mi-	.	.	.	.	.	.	.	2g\	-ta
=25-	=25-	=25-	=25-	=25-	=25-	=25-	=25-	=25-	=25-	=25-
2A\	.	0ryy	1r	.	0ryy	.	1c\	-ca-	2e\	mun-
!LO:TX:t=P:problem=kreska pseudotaktowa	!	!	!	!	!	!	!	!	!	!
2F\	-ſe-	.	.	.	.	.	.	.	2f\	.
!	!	!	!	!	!	!	!LO:TX:t=P:problem=kreska pseudotaktowa	!	!LO:TX:t=P:problem=kreska pseudotaktowa	!
1G\	-re-	.	2r	.	.	.	1B-\	-ta	1d\	-di
*	*	*	*	*	*	*	*	*	*	*Xij
!	!	!	!LO:TX:t=P:problem=kreska pseudotaktowa	!	!	!	!	!	!	!
.	.	.	2G/	mi-	.	.	.	.	.	.
=26-	=26-	=26-	=26-	=26-	=26-	=26-	=26-	=26-	=26-	=26-
!LO:TX:t=P:problem=kreska pseudotaktowa	!	!	!	!	!	!	!	!	!	!
1F\	-re	0ryy	2A/	-ſe-	0ryy	.	0c\	m(un)-	1r	.
.	.	.	2F/	-re-	.	.	.	.	.	.
1E\	no-	.	2.G/	-re	.	.	.	.	2r	.
.	.	.	.	.	.	.	.	.	1g\	mi-
!	!	!	!LO:TX:t=P:problem=kreska pseudotaktowa	!	!	!	!	!	!	!
.	.	.	4A/	.	.	.	.	.	.	.
=27-	=27-	=27-	=27-	=27-	=27-	=27-	=27-	=27-	=27-	=27-
!LO:TX:t=P:problem=kreska pseudotaktowa	!	!	!	!	!	!	!LO:TX:t=P:problem=kreska pseudotaktowa	!	!	!
1D\	-bis	0ryy	2B-/	no-	0ryy	.	0d\	-di;	.	.
*	*	*	*	*	*	*	*	*Xij	*	*
!	!	!	!	!	!	!	!	!	!LO:TX:t=P:problem=kreska pseudotaktowa	!
.	.	.	2A/	.	.	.	.	.	2.f\	-ſe-
2r	.	.	2D/	-bis;	.	.	.	.	.	.
.	.	.	.	.	.	.	.	.	4e\	.
1G\	mi-	.	1B-\	.	.	.	.	.	4d\	.
!	!	!	!	!	!	!	!	!	!LO:TX:t=P:problem=kreska pseudotaktowa	!
.	.	.	.	.	.	.	.	.	4c/	.
=28-	=28-	=28-	=28-	=28-	=28-	=28-	=28-	=28-	=28-	=28-
.	.	0ryy	.	.	0ryy	.	0r	.	2B-/	-re-
!	!	!	!LO:TX:t=P:problem=kreska pseudotaktowa	!	!	!	!	!	!	!
1F\	-ſe-	.	2.A/	.	.	.	.	.	2.c/	-re
.	.	.	4G/	.	.	.	.	.	4B-/	.
!LO:TX:t=P:problem=kreska pseudotaktowa	!	!	!	!	!	!	!	!	!	!
2E\	-re-	.	1G/	.	.	.	.	.	4A/	.
!	!	!	!	!	!	!	!	!	!LO:TX:t=P:problem=kreska pseudotaktowa	!
.	.	.	.	.	.	.	.	.	4G/	.
=29-	=29-	=29-	=29-	=29-	=29-	=29-	=29-	=29-	=29-	=29-
*	*	*	*	*	*	*	*	*ij	*	*
2D/	-re	0ryy	.	.	0ryy	.	0.d\	pec-	1A/	no-
!LO:TX:t=P:problem=kreska pseudotaktowa	!	!	!LO:TX:t=P:problem=kreska pseudotaktowa	!	!	!	!	!	!	!
2D/	no-	.	2F/	.	.	.	.	.	.	.
!	!	!	!	!	!	!	!	!	!LO:TX:t=P:problem=kreska pseudotaktowa	!
2GG/	-bis	.	2G/	.	.	.	.	.	1G/	-bis;
*	*Xij	*	*	*	*	*	*	*	*	*
!LO:TX:t=P:problem=trzy semibreves przekreślone - oznaczenie synkopy	!	!	!	!	!	!	!	!	!	!
1G\	mi-	.	1B-\	mi-	.	.	.	.	.	.
=30-	=30-	=30-	=30-	=30-	=30-	=30-	=30-	=30-	=30-	=30-
.	.	0ryy	.	.	0ryy	.	.	.	1r	.
1F\	-ſe-	.	1A\	.	.	.	.	.	.	.
!	!	!	!	!	!	!	!LO:TX:t=P:problem=kreska pseudotaktowa	!	!	!
.	.	.	.	.	.	.	1c\	.	2r	.
!	!	!	!	!	!	!	!	!	!LO:TX:t=P:problem=cztery semibreves przekreślone - oznaczenie synkopy	!
1E-X\	-re-	.	4G/	-ſe-	.	.	.	.	1g\	mi-
!	!	!	!LO:TX:t=P:problem=kreska pseudotaktowa	!	!	!	!	!	!	!
.	.	.	4A/	-re-	.	.	.	.	.	.
=31-	=31-	=31-	=31-	=31-	=31-	=31-	=31-	=31-	=31-	=31-
.	.	0ryy	4B-\	.	0ryy	.	1B-\	-ca-	.	.
*	*	*	*custos:d	*	*	*	*	*	*	*
.	.	.	4c\	.	.	.	.	.	.	.
*	*	*	*	*	*	*	*	*	*custos:e	*
*	*	*	*xywh-#438:1104,1270,4341,973	*	*	*	*	*	*	*
!	!	!	!LO:LB:g=original	!	!	!	!	!	!	!
!LO:TX:t=P:problem=kreska pseudotaktowa	!	!	!LO:TX:t=P:problem=kreska pseudotaktowa	!	!	!	!	!	!	!
2D/	-re	.	2d\	-re	.	.	.	.	1f\	-ſe-
*	*	*	*	*	*	*	*custos:G	*	*	*
!	!	!	!	!	!	!	!LO:TX:t=P:problem=kreska pseudotaktowa	!	!	!
1.C/	no-	.	2.G/	no-	.	.	1c\	.	.	.
*	*	*	*	*	*	*	*	*	*xywh-#53:5798,592,4417,934	*
!	!	!	!	!	!	!	!	!	!LO:PB:g=original	!
.	.	.	.	.	.	.	.	.	1e\	-re-
.	.	.	4F/	.	.	.	.	.	.	.
!	!	!	!	!	!	!	!LO:LB:g=original	!	!	!
=32-	=32-	=32-	=32-	=32-	=32-	=32-	=32-	=32-	=32-	=32-
*	*	*	*	*	*	*	*xywh-#244:1107,2041,4295,883	*	*	*
.	.	0ryy	4G/	.	0ryy	.	0G/	-ta	.	.
.	.	.	4A/	.	.	.	.	.	.	.
*custos:E	*	*	*	*	*	*	*	*	*	*
!	!	!	!LO:TX:t=P:problem=kreska pseudotaktowa	!	!	!	!	!	!	!
2BB-/	.	.	[y2B-\	.	.	.	.	.	1d\	-re
*xywh-#611:1047,472,4326,980	*	*	*	*	*	*	*	*	*	*
!LO:PB:g=original	!	!	!LO:N:xstem:cue	!	!	!	!	!	!	!
1Eny\	.	.	4B-\]	.	.	.	.	.	.	.
.	.	.	4A/	.	.	.	.	.	.	.
.	.	.	1G/	.	.	.	.	.	2c/	no-
=33-	=33-	=33-	=33-	=33-	=33-	=33-	=33-	=33-	=33-	=33-
!LO:TX:t=P:problem=kreska pseudotaktowa	!	!	!	!	!	!	!	!	!LO:TX:t=P:problem=kreska pseudotaktowa	!
1D\	-bis;	0ryy	.	.	0ryy	.	1A\	m(un)-	00d\	-bis
*	*	*	*	*	*	*	*	*	*	*Xij
!	!	!	!LO:TX:t=P:problem=kreska pseudotaktowa	!	!	!	!	!	!	!
.	.	.	2F/	.	.	.	.	.	.	.
1r	.	.	2G/	.	.	.	2G/	.	.	.
!	!	!	!	!	!	!	!LO:TX:t=P:problem=kreska pseudotaktowa	!	!	!
.	.	.	2A/	-bis;	.	.	2F/	.	.	.
=34-	=34-	=34-	=34-	=34-	=34-	=34-	=34-	=34-	=34-	=34-
!	!	!	!LO:TX:t=P:problem=kreska pseudotaktowa	!	!	!	!	!	!	!
2r	.	0ryy	1B-\	.	0ryy	.	1G/	.	.	.
1G\	mi-	.	.	.	.	.	.	.	.	.
.	.	.	2r	.	.	.	1D/	-di	.	.
!LO:TX:t=P:problem=kreska pseudotaktowa	!	!	!	!	!	!	!	!	!	!
*	*	*	*	*ij	*	*	*	*	*	*
2F\	-ſe-	.	2A/	mi-	.	.	.	.	.	.
=35-	=35-	=35-	=35-	=35-	=35-	=35-	=35-	=35-	=35-	=35-
!	!	!	!	!	!	!	!LO:TX:t=P:problem=kreska pseudotaktowa	!	!	!
2G\	-re-	0ryy	2G/	-ſe-	0ryy	.	0.d\	pec-	0r	.
!	!	!	!LO:TX:t=P:problem=kreska pseudotaktowa	!	!	!	!	!	!	!
2A\	-re	.	2F/	-re-	.	.	.	.	.	.
1B-\	no-	.	1G/	-re	.	.	.	.	.	.
=36-	=36-	=36-	=36-	=36-	=36-	=36-	=36-	=36-	=36-	=36-
2A\	.	0ryy	4D/	no-	0ryy	.	.	.	1.f\	mi-
.	.	.	4E/	.	.	.	.	.	.	.
!LO:TX:t=P:problem=kreska pseudotaktowa	!	!	!	!	!	!	!	!	!	!
2D/	.	.	4F/	.	.	.	.	.	.	.
!	!	!	!LO:TX:t=P:problem=kreska pseudotaktowa	!	!	!	!	!	!	!
.	.	.	4G/	.	.	.	.	.	.	.
*	*	*	*custos:B-	*	*	*	*	*	*	*
2F\	.	.	2A/	.	.	.	2c\	-ca-	.	.
*	*	*	*xywh-#438:1162,2049,4330,916	*	*	*	*	*	*	*
!	!	!	!LO:LB:g=original	!	!	!	!	!	!	!
!	!	!	!LO:TX:t=P:problem=kreska pseudotaktowa	!	!	!	!LO:TX:t=P:problem=kreska pseudotaktowa	!	!LO:TX:t=P:problem=kreska pseudotaktowa	!
2G\	.	.	2B-\	.	.	.	2B-\	-ta	2d/	-ſe-
=37-	=37-	=37-	=37-	=37-	=37-	=37-	=37-	=37-	=37-	=37-
2E/	.	0ryy	1G/	.	0ryy	.	1c\	mun-	4e\	-re-
.	.	.	.	.	.	.	.	.	4f\	-re
2E/	.	.	.	.	.	.	.	.	4g\	.
!	!	!	!	!	!	!	!	!	!LO:TX:t=P:problem=kreska pseudotaktowa	!
.	.	.	.	.	.	.	.	.	4e\	.
!LO:TX:t=P:problem=kreska pseudotaktowa	!	!	!	!	!	!	!	!	!	!
1D\	-bis;	.	2A/	.	.	.	1d\	-di	2.f\	no-
*	*	*	*	*	*	*	*	*Xij	*	*
!	!	!	!LO:TX:t=P:problem=kreska pseudotaktowa	!	!	!	!	!	!	!
.	.	.	2D/	-bis	.	.	.	.	.	.
*	*	*	*	*Xij	*	*	*	*	*	*
.	.	.	.	.	.	.	.	.	4e\	.
=38-	=38-	=38-	=38-	=38-	=38-	=38-	=38-	=38-	=38-	=38-
0r	.	0ryy	2.G/	no-	0ryy	.	1.B-\	mi-	4d\	.
.	.	.	.	.	.	.	.	.	4c\	.
.	.	.	.	.	.	.	.	.	1d\	.
.	.	.	4F/	.	.	.	.	.	.	.
.	.	.	1E-X/	.	.	.	.	.	.	.
!	!	!	!	!	!	!	!LO:TX:t=P:problem=kreska pseudotaktowa	!	!LO:TX:t=P:problem=kreska pseudotaktowa	!
.	.	.	.	.	.	.	2G/	-ſe-	2c/	-bis,
=39-	=39-	=39-	=39-	=39-	=39-	=39-	=39-	=39-	=39-	=39-
!	!	!	!LO:TX:t=P:problem=kreska pseudotaktowa	!	!	!	!	!	!	!
*	*	*	*	*	*	*	*	*	*	*ij
1r	.	0ryy	1D/	-bis;	0ryy	.	2A/	-re-	1f\	mi-
!	!	!	!	!	!	!	!LO:TX:t=P:problem=kreska pseudotaktowa	!	!	!
.	.	.	.	.	.	.	2B-\	-re	.	.
0C/	mi-	.	1r	.	.	.	2.c\	no-	2.e\	-ſe-
!	!	!	!	!	!	!	!	!	!LO:TX:t=P:problem=kreska pseudotaktowa	!
.	.	.	.	.	.	.	4B-\	.	4d/	.
=40-	=40-	=40-	=40-	=40-	=40-	=40-	=40-	=40-	=40-	=40-
.	.	0ryy	0r	.	0ryy	.	4A\	.	2c/	-re-
*	*	*	*	*	*	*	*custos:G	*	*	*
.	.	.	.	.	.	.	4G/	.	.	.
*	*	*	*	*	*	*	*xywh-#244:1136,2725,4164,962	*	*	*
!	!	!	!	!	!	!	!LO:LB:g=original	!	!	!
.	.	.	.	.	.	.	1G/	.	2B-/	-re
*	*	*	*	*	*	*	*	*	*custos:G	*
!LO:TX:t=P:problem=kreska pseudotaktowa	!	!	!	!	!	!	!	!	!LO:TX:t=P:problem=kreska pseudotaktowa	!
1D\	-ſe-	.	.	.	.	.	.	.	1A/	no-
!	!	!	!	!	!	!	!LO:TX:t=P:problem=kreska pseudotaktowa	!	!	!
.	.	.	.	.	.	.	2F/	.	.	.
!	!	!	!	!	!	!	!	!	!LO:LB:g=original	!
=41-	=41-	=41-	=41-	=41-	=41-	=41-	=41-	=41-	=41-	=41-
*	*	*	*	*	*	*	*	*	*xywh-#53:5781,1370,4347,929	*
!	!	!	!LO:TX:t=P:problem=kreska pseudotaktowa	!	!	!	!LO:TX:t=P:problem=kreska pseudotaktowa	!	!LO:TX:t=P:problem=kreska pseudotaktowa	!
0E\	-re-	0ryy	1.B-\	mi-	0ryy	.	0G/	-bis;	1G/	-bis
*	*	*	*	*	*	*	*	*	*	*Xij
.	.	.	.	.	.	.	.	.	2r	.
!	!	!	!LO:TX:t=P:problem=kreska pseudotaktowa	!	!	!	!	!	!	!
.	.	.	2G/	-ſe-	.	.	.	.	2B-/	mi-
=42-	=42-	=42-	=42-	=42-	=42-	=42-	=42-	=42-	=42-	=42-
*custos:C	*	*	*	*	*	*	*	*	*	*
!LO:TX:t=P:problem=kreska pseudotaktowa	!	!	!	!	!	!	!	!	!	!
*	*	*	*	*	*	*	*	*ij	*	*
1D\	-re	0ryy	2A/	-re-	0ryy	.	1F/	no-	2d\	-ſe-
!	!	!	!	!	!	!	!	!	!LO:TX:t=P:problem=kreska pseudotaktowa	!
.	.	.	2B-\	-re	.	.	.	.	2d\	-re-
*xywh-#611:1087,1154,4348,1025	*	*	*	*	*	*	*	*	*	*
!LO:LB:g=original	!	!	!	!	!	!	!	!	!	!
1.C/	no-	.	2.c\	.	.	.	2.G/	.	2.e\	-re
!	!	!	!LO:TX:t=P:problem=kreska pseudotaktowa	!	!	!	!LO:TX:t=P:problem=kreska pseudotaktowa	!	!LO:TX:t=P:problem=kreska pseudotaktowa	!
.	.	.	4B-\	no-	.	.	4F/	.	4d\	.
=43-	=43-	=43-	=43-	=43-	=43-	=43-	=43-	=43-	=43-	=43-
.	.	0ryy	4A\	.	0ryy	.	2E/	.	4c/	.
.	.	.	4G/	.	.	.	.	.	4B-/	.
2GG/	.	.	1G/	.	.	.	2D/	.	2.d\	.
1D\	.	.	.	.	.	.	1Dyy/	.	.	.
.	.	.	.	.	.	.	.	.	4c/	no-
!	!	!	!LO:TX:t=P:problem=kreska pseudotaktowa	!	!	!	!	!	!LO:TX:t=P:problem=kreska pseudotaktowa	!
.	.	.	2F/	-bis;	.	.	.	.	2A/	-bis;
=44-	=44-	=44-	=44-	=44-	=44-	=44-	=44-	=44-	=44-	=44-
*	*	*	*custos:B-	*	*	*	*	*	*	*
!	!	!	!	!	!	!	!LO:TX:b:t=Agnus ſe(cun)dus\ntacet&colon;	!	!	!
0GGl/	-bis;	0ryy	0Gl\	.	0ryy	.	0D/	-bis	0B-l\;	.
*	*	*	*	*	*	*	*	*Xij	*	*
!	!	!	!LO:LB:g=original	!	!	!	!	!	!	!
=45||-	=45||-	=45||-	=45||-	=45||-	=45||-	=45||-	=45||-	=45||-	=45||-	=45||-
*	*	*	*xywh-#438:1202,2754,4330,1031	*	*	*	*	*	*	*
*M2/1	*	*	*M2/1	*	*M2/1	*	*	*	*M2/1	*
*met(C|)	*	*	*met(C|)	*	*met(C|)	*	*	*	*met(C|)	*
!LO:TX:t=P:problem=kreska pseudotaktowa	!	!	!	!	!	!	!	!	!	!
00r	.	0ryy	0B-\	A-	0ryy	.	0ryy	.	1.d\	A-
!	!	!	!	!	!	!	!	!	!LO:TX:t=P:problem=kreska pseudotaktowa	!
.	.	.	.	.	.	.	.	.	2d\	-gnus
=46-	=46-	=46-	=46-	=46-	=46-	=46-	=46-	=46-	=46-	=46-
!	!	!	!LO:TX:t=P:problem=kreska pseudotaktowa	!	!	!	!	!	!	!
.	.	0ryy	1F/	-gnus	0ryy	.	0ryy	.	1c\	.
.	.	.	1G/	.	.	.	.	.	2.B-/	De-
!	!	!	!	!	!	!	!	!	!LO:TX:t=P:problem=kreska pseudotaktowa	!
.	.	.	.	.	.	.	.	.	4c\	.
=47-	=47-	=47-	=47-	=47-	=47-	=47-	=47-	=47-	=47-	=47-
1.G\	A-	0ryy	1G/	De-	0ryy	.	0ryy	.	4d\	.
*	*	*	*	*	*	*	*	*	*custos:d	*
.	.	.	.	.	.	.	.	.	4e\	.
*	*	*	*	*	*	*	*	*	*xywh-#53:5869,2065,4283,917	*
!	!	!	!	!	!	!	!	!	!LO:LB:g=original	!
.	.	.	.	.	.	.	.	.	2.d/	.
!	!	!	!LO:TX:t=P:problem=kreska pseudotaktowa	!	!	!	!	!	!	!
.	.	.	0d\	-i;	.	.	.	.	.	.
.	.	.	.	.	.	.	.	.	4c/	.
2G\	-gnus	.	.	.	.	.	.	.	1B-/	.
=48-	=48-	=48-	=48-	=48-	=48-	=48-	=48-	=48-	=48-	=48-
!LO:TX:t=P:problem=kreska pseudotaktowa	!	!	!	!	!	!	!	!	!	!
1F\	De-	0ryy	.	.	0ryy	.	0ryy	.	.	.
!	!	!	!	!	!	!	!	!	!LO:TX:t=P:problem=kreska pseudotaktowa	!
.	.	.	.	.	.	.	.	.	2A/	-i
*	*	*	*	*ij	*	*	*	*	*	*
1E-X\	-i;	.	1.e\	A-	.	.	.	.	2B-/	.
.	.	.	.	.	.	.	.	.	1c\	.
=49-	=49-	=49-	=49-	=49-	=49-	=49-	=49-	=49-	=49-	=49-
*	*ij	*	*	*	*	*	*	*	*	*
1.G\	A-	0ryy	.	.	0ryy	.	0ryy	.	.	.
.	.	.	2d\	-gnus	.	.	.	.	4B-/	.
!	!	!	!	!	!	!	!	!	!LO:TX:t=P:problem=kreska pseudotaktowa	!
.	.	.	.	.	.	.	.	.	4A/	.
.	.	.	0d\	De-	.	.	.	.	2B-/	.
!LO:TX:t=P:problem=kreska pseudotaktowa	!	!	!	!	!	!	!	!	!	!
2F\	.	.	.	.	.	.	.	.	2A/	.
=50-	=50-	=50-	=50-	=50-	=50-	=50-	=50-	=50-	=50-	=50-
2G\	.	0ryy	.	.	0ryy	.	0ryy	.	2B-/	.
!	!	!	!	!	!	!	!	!	!LO:TX:t=P:problem=kreska pseudotaktowa	!
2D/	-gnus	.	.	.	.	.	.	.	2A/	.
!	!	!	!LO:TX:t=P:problem=kreska pseudotaktowa	!	!	!	!	!	!	!
1Eny\	De-	.	1c\	.	.	.	.	.	2G/	.
.	.	.	.	.	.	.	.	.	1g\	qui
=51-	=51-	=51-	=51-	=51-	=51-	=51-	=51-	=51-	=51-	=51-
!LO:TX:t=P:problem=kreska pseudotaktowa	!	!	!LO:TX:t=P:problem=kreska pseudotaktowa	!	!	!	!	!	!	!
1D\	-i	0ryy	0d\	-i	0ryy	.	0ryy	.	.	.
*	*Xij	*	*	*Xij	*	*	*	*	*	*
.	.	.	.	.	.	.	.	.	4f\	.
!	!	!	!	!	!	!	!	!	!LO:TX:t=P:problem=kreska pseudotaktowa	!
.	.	.	.	.	.	.	.	.	4e\	.
2r	.	.	.	.	.	.	.	.	2f\	.
1G\	qui	.	.	.	.	.	.	.	1B-/	tol-
=52-	=52-	=52-	=52-	=52-	=52-	=52-	=52-	=52-	=52-	=52-
!	!	!	!LO:TX:t=P:problem=kreska pseudotaktowa	!	!	!	!	!	!	!
.	.	0ryy	1r	.	0ryy	.	0ryy	.	.	.
4F\	.	.	.	.	.	.	.	.	4A/	.
*custos:F	*	*	*	*	*	*	*	*	*	*
!LO:TX:t=P:problem=kreska pseudotaktowa	!	!	!	!	!	!	!	!	!LO:TX:t=P:problem=kreska pseudotaktowa	!
4E\	.	.	.	.	.	.	.	.	4G/	-lis
*xywh-#611:1081,2055,4320,816	*	*	*	*	*	*	*	*	*	*
!LO:LB:g=original	!	!	!	!	!	!	!	!	!	!
2F\	.	.	2r	.	.	.	.	.	2A/	.
1B-\	tol-	.	1d\	a-	.	.	.	.	2G/	.
=53-	=53-	=53-	=53-	=53-	=53-	=53-	=53-	=53-	=53-	=53-
!	!	!	!	!	!	!	!	!	!LO:TX:t=P:problem=kreska pseudotaktowa	!
*	*	*	*	*	*	*	*	*	*	*ij
.	.	0ryy	.	.	0ryy	.	0ryy	.	1g\	qui
4A\	-lis	.	4c\	.	.	.	.	.	.	.
!LO:TX:t=P:problem=kreska pseudotaktowa	!	!	!LO:TX:t=P:problem=kreska pseudotaktowa	!	!	!	!	!	!	!
4G\	.	.	4B-\	.	.	.	.	.	.	.
*	*	*	*	*	*	*	*	*	*custos:f	*
2A\	.	.	2c\	-gnus	.	.	.	.	2e\	tol-
*	*	*	*	*	*	*	*	*	*xywh-#53:5775,2860,4388,882	*
!	!	!	!	!	!	!	!	!	!LO:LB:g=original	!
!	!	!	!	!	!	!	!	!	!LO:TX:t=P:problem=kreska pseudotaktowa	!
2D/	.	.	2.d\	.	.	.	.	.	2f\	-lis
=54-	=54-	=54-	=54-	=54-	=54-	=54-	=54-	=54-	=54-	=54-
!LO:TX:t=P:problem=kreska pseudotaktowa	!	!	!	!	!	!	!	!	!	!
1G\	.	0ryy	.	.	0ryy	.	0ryy	.	1B-/	qui-
.	.	.	4c\	De-	.	.	.	.	.	.
.	.	.	1B-\	.	.	.	.	.	.	.
*	*	*	*	*	*	*	*	*	*lig	*
2.F\	qui	.	.	.	.	.	.	.	1c\	-tol-
.	.	.	4A/	.	.	.	.	.	.	.
!	!	!	!LO:TX:t=P:problem=kreska pseudotaktowa	!	!	!	!	!	!	!
4E\	tol-	.	4G/	.	.	.	.	.	.	.
=55-	=55-	=55-	=55-	=55-	=55-	=55-	=55-	=55-	=55-	=55-
2D/	.	0ryy	2A/	.	0ryy	.	0ryy	.	1d\	.
*	*	*	*custos:A	*	*	*	*	*	*	*
2BB-/	.	.	2B-\	.	.	.	.	.	.	.
*	*	*	*xywh-#438:5893,606,4507,933	*	*	*	*	*	*	*
!	!	!	!LO:PB:g=original	!	!	!	!	!	!	!
!LO:TX:t=P:problem=kreska pseudotaktowa	!	!	!	!	!	!	!	!	!	!
*	*	*	*	*	*	*	*	*	*Xlig	*
1C/	.	.	2A/	.	.	.	.	.	2.c/	.
.	.	.	1G/	.	.	.	.	.	.	.
!	!	!	!	!	!	!	!	!	!LO:TX:t=P:problem=kreska pseudotaktowa	!
.	.	.	.	.	.	.	.	.	4B-/	.
=56-	=56-	=56-	=56-	=56-	=56-	=56-	=56-	=56-	=56-	=56-
!	!	!	!	!	!	!	!	!	!LO:TX:t=P:problem=kreska pseudotaktowa	!
!LO:TX:t=P:problem=kreska pseudotaktowa	!	!	!	!	!	!	!	!	!LO:TX:t=P:problem=oznaczona poprawka rytmiczna	!
1D\	-lis	0ryy	.	.	0ryy	.	0ryy	.	1A/	.
.	.	.	2F/	.	.	.	.	.	.	.
!	!	!	!LO:TX:t=P:problem=kreska pseudotaktowa	!	!	!	!	!	!LO:TX:t=P:problem=kreska pseudotaktowa	!
2r	.	.	1G/	-i;	.	.	.	.	1G/	-lis
*	*	*	*	*	*	*	*	*	*	*Xij
2G\	pec-	.	.	.	.	.	.	.	.	.
=57-	=57-	=57-	=57-	=57-	=57-	=57-	=57-	=57-	=57-	=57-
2G\	-ca-	0ryy	2r	.	0ryy	.	0ryy	.	0r	.
!LO:TX:t=P:problem=kreska pseudotaktowa	!	!	!	!	!	!	!	!	!	!
2D/	-ta	.	2d\	qui	.	.	.	.	.	.
1.F\	.	.	2d\	.	.	.	.	.	.	.
!	!	!	!LO:TX:t=P:problem=kreska pseudotaktowa	!	!	!	!	!	!	!
.	.	.	2A/	tol-	.	.	.	.	.	.
=58-	=58-	=58-	=58-	=58-	=58-	=58-	=58-	=58-	=58-	=58-
.	.	0ryy	2.c\	-lis-	0ryy	.	0ryy	.	2r	.
!	!	!	!	!	!	!	!	!	!LO:TX:t=P:problem=kreska pseudotaktowa	!
4E\	mun-	.	.	.	.	.	.	.	2g\	pec-
!LO:TX:t=P:problem=kreska pseudotaktowa	!	!	!	!	!	!	!	!	!	!
4D\	.	.	4d\	.	.	.	.	.	.	.
*custos:BB-	*	*	*	*	*	*	*	*	*	*
2C/	.	.	2e\	-pec-	.	.	.	.	2g\	-ca-
*xywh-#611:1081,2737,4298,912	*	*	*	*	*	*	*	*	*	*
!LO:LB:g=original	!	!	!LO:TX:t=P:problem=kreska pseudotaktowa	!	!	!	!	!	!	!
2BB-/	.	.	[y2f\	-ca-	.	.	.	.	2d\	-ta
=59-	=59-	=59-	=59-	=59-	=59-	=59-	=59-	=59-	=59-	=59-
!LO:TX:t=P:problem=kreska pseudotaktowa	!	!	!LO:N:xstem:cue	!	!	!	!	!	!	!
1D\	-di	0ryy	4f\]	.	0ryy	.	0ryy	.	1f\	m(un)-
.	.	.	4e\	-ta	.	.	.	.	.	.
.	.	.	1d\	.	.	.	.	.	.	.
!	!	!	!	!	!	!	!	!	!LO:TX:t=P:problem=kreska pseudotaktowa	!
2r	.	.	.	.	.	.	.	.	1e\	-di,
!LO:TX:t=P:problem=kreska pseudotaktowa	!	!	!LO:TX:t=P:problem=kreska pseudotaktowa	!	!	!	!	!	!	!
2AA/	mi-	.	2c\	mun-	.	.	.	.	.	.
=60-	=60-	=60-	=60-	=60-	=60-	=60-	=60-	=60-	=60-	=60-
4BB-/	-ſe-	0ryy	1B-\	.	0ryy	.	0ryy	.	2r	.
4AA/	-re-	.	.	.	.	.	.	.	.	.
*	*	*	*	*	*	*	*	*	*	*ij
4BB-/	.	.	.	.	.	.	.	.	2d\	pec-
!LO:TX:t=P:problem=kreska pseudotaktowa	!	!	!	!	!	!	!	!	!	!
4C/	.	.	.	.	.	.	.	.	.	.
!LO:TX:t=P:problem=kreska pseudotaktowa	!	!	!	!	!	!	!	!	!	!
1D\	.	.	2A/	.	.	.	.	.	2d\	-ca-
!	!	!	!LO:TX:t=P:problem=kreska pseudotaktowa	!	!	!	!	!	!LO:TX:t=P:problem=kreska pseudotaktowa	!
.	.	.	2F/	.	.	.	.	.	2A/	-ta
=61-	=61-	=61-	=61-	=61-	=61-	=61-	=61-	=61-	=61-	=61-
2.C/	-re	0ryy	2A/	.	0ryy	.	0ryy	.	0c\	m(un)-
.	.	.	1G/	.	.	.	.	.	.	.
!LO:TX:t=P:problem=kreska pseudotaktowa	!	!	!	!	!	!	!	!	!	!
4BB-/	.	.	.	.	.	.	.	.	.	.
!LO:TX:t=P:problem=kreska pseudotaktowa	!	!	!	!	!	!	!	!	!	!
1AA/	no-	.	.	.	.	.	.	.	.	.
!	!	!	!LO:TX:t=P:problem=kreska pseudotaktowa	!	!	!	!	!	!	!
.	.	.	2F/	.	.	.	.	.	.	.
=62-	=62-	=62-	=62-	=62-	=62-	=62-	=62-	=62-	=62-	=62-
!	!	!	!	!	!	!	!	!	!LO:TX:t=P:problem=kreska pseudotaktowa	!
2GG/	-bis;	0ryy	1G/	-di,	0ryy	.	0ryy	.	1B-/	-di
*	*ji	*	*	*	*	*	*	*	*	*Xij
!LO:TX:t=P:problem=kreska pseudotaktowa	!	!	!	!	!	!	!	!	!	!
2G\	mi-	.	.	.	.	.	.	.	.	.
*	*	*	*custos:d	*	*	*	*	*	*	*
2G\	-ſe-	.	2d\	qui	.	.	.	.	0r	.
*	*	*	*xywh-#438:5882,1345,4358,899	*	*	*	*	*	*	*
!	!	!	!LO:LB:g=original	!	!	!	!	!	!	!
!LO:TX:t=P:problem=kreska pseudotaktowa	!	!	!LO:TX:t=P:problem=kreska pseudotaktowa	!	!	!	!	!	!	!
2D/	-re-	.	2d\	tol-	.	.	.	.	.	.
=63-	=63-	=63-	=63-	=63-	=63-	=63-	=63-	=63-	=63-	=63-
2.F\	-re	0ryy	2A/	-lis	0ryy	.	0ryy	.	.	.
.	.	.	2c\	.	.	.	.	.	.	.
!LO:TX:t=P:problem=kreska pseudotaktowa	!	!	!	!	!	!	!	!	!	!
4E/	.	.	.	.	.	.	.	.	.	.
4D/	.	.	2.B-\	pec-	.	.	.	.	2r	.
4C/	.	.	.	.	.	.	.	.	.	.
!LO:TX:t=P:problem=kreska pseudotaktowa	!	!	!	!	!	!	!	!	!LO:TX:t=P:problem=kreska pseudotaktowa	!
[y2BB-/	no-	.	.	.	.	.	.	.	2d/	pec-
!	!	!	!LO:TX:t=P:problem=kreska pseudotaktowa	!	!	!	!	!	!	!
.	.	.	4A/	-ca-	.	.	.	.	.	.
=64-	=64-	=64-	=64-	=64-	=64-	=64-	=64-	=64-	=64-	=64-
*	*	*	*	*	*	*	*	*	*custos:A	*
!LO:N:xstem:cue	!	!	!	!	!	!	!	!	!	!
4BB-/]	.	0ryy	2G/	-ta	0ryy	.	0ryy	.	2d/	-ca-
*custos:D	*	*	*	*	*	*	*	*	*	*
4C/	.	.	.	.	.	.	.	.	.	.
*xywh-#611:5700,585,4433,884	*	*	*	*	*	*	*	*	*xywh-#54:1188,634,4296,927	*
!LO:PB:g=original	!	!	!	!	!	!	!	!	!LO:PB:g=original	!
!LO:TX:t=P:problem=kreska pseudotaktowa	!	!	!	!	!	!	!	!	!	!
2D/	.	.	2F/	.	.	.	.	.	2A/	-ta
2C/	-bis	.	2A/	.	.	.	.	.	1c\	m(un)-
*	*Xij	*	*	*	*	*	*	*	*	*
1E-X\	mi-	.	1G/	.	.	.	.	.	.	.
=65-	=65-	=65-	=65-	=65-	=65-	=65-	=65-	=65-	=65-	=65-
!	!	!	!	!	!	!	!	!	!LO:TX:t=P:problem=kreska pseudotaktowa	!
.	.	0ryy	.	.	0ryy	.	0ryy	.	0B-/	-di,
!LO:TX:t=P:problem=kreska pseudotaktowa	!	!	!LO:TX:t=P:problem=kreska pseudotaktowa	!	!	!	!	!	!	!
2D/	-ſe-	.	2F/	.	.	.	.	.	.	.
2.E-\	-re-	.	2G/	.	.	.	.	.	.	.
.	.	.	2.B-\	.	.	.	.	.	.	.
4D/	-re	.	.	.	.	.	.	.	.	.
=66-	=66-	=66-	=66-	=66-	=66-	=66-	=66-	=66-	=66-	=66-
1C/	no-	0ryy	.	.	0ryy	.	0ryy	.	1r	.
.	.	.	4A/	.	.	.	.	.	.	.
!	!	!	!LO:TX:t=P:problem=kreska pseudotaktowa	!	!	!	!	!	!	!
.	.	.	2A/	mun-	.	.	.	.	.	.
!LO:TX:t=P:problem=kreska pseudotaktowa	!	!	!	!	!	!	!	!	!	!
1BB-/	-bis;	.	1B-\	-di;	.	.	.	.	2r	.
!	!	!	!	!	!	!	!	!	!LO:TX:t=P:problem=kreska pseudotaktowa	!
.	.	.	.	.	.	.	.	.	2d\	mi-
=67-	=67-	=67-	=67-	=67-	=67-	=67-	=67-	=67-	=67-	=67-
1r	.	0ryy	2r	.	0ryy	.	0ryy	.	2d\	-ſe-
!	!	!	!LO:TX:t=P:problem=kreska pseudotaktowa	!	!	!	!	!	!	!
*	*	*	*	*ij	*	*	*	*	*	*
.	.	.	2A/	qui	.	.	.	.	2e\	-re-
2r	.	.	2A/	tol-	.	.	.	.	1.f\	-re
!LO:TX:t=P:problem=kreska pseudotaktowa	!	!	!	!	!	!	!	!	!	!
*	*ij	*	*	*	*	*	*	*	*	*
2D/	mi-	.	2A/	-lis	.	.	.	.	.	.
=68-	=68-	=68-	=68-	=68-	=68-	=68-	=68-	=68-	=68-	=68-
!	!	!	!LO:TX:t=P:problem=kreska pseudotaktowa	!	!	!	!	!	!	!
2D/	-ſe-	0ryy	1B-\	pec-	0ryy	.	0ryy	.	.	.
!LO:TX:t=P:problem=kreska pseudotaktowa	!	!	!	!	!	!	!	!	!	!
2Eny\	.	.	.	.	.	.	.	.	4e\	.
!	!	!	!	!	!	!	!	!	!LO:TX:t=P:problem=kreska pseudotaktowa	!
.	.	.	.	.	.	.	.	.	4d\	.
2.F\	-re-	.	2.A/	-ca-	.	.	.	.	1c\	.
!LO:TX:t=P:problem=kreska pseudotaktowa	!	!	!	!	!	!	!	!	!	!
4E\	.	.	4G/	.	.	.	.	.	.	.
=69-	=69-	=69-	=69-	=69-	=69-	=69-	=69-	=69-	=69-	=69-
4D/	.	0ryy	4F/	.	0ryy	.	0ryy	.	2r	.
*	*	*	*custos:F	*	*	*	*	*	*	*
4C/	.	.	4Eny/	.	.	.	.	.	.	.
*	*	*	*xywh-#438:5824,2050,4307,939	*	*	*	*	*	*	*
!	!	!	!LO:LB:g=original	!	!	!	!	!	!	!
!	!	!	!	!	!	!	!	!	!LO:TX:t=P:problem=kreska pseudotaktowa	!
*	*	*	*	*	*	*	*	*	*	*ij
2.D/	.	.	2.F/	-ta	.	.	.	.	2A/	mi-
.	.	.	.	.	.	.	.	.	2A/	-ſe-
4C/	.	.	4D/	.	.	.	.	.	.	.
!LO:TX:t=P:problem=kreska pseudotaktowa	!	!	!	!	!	!	!	!	!	!
2BB-/	-re	.	1G/	mun-	.	.	.	.	2B-/	.
=70-	=70-	=70-	=70-	=70-	=70-	=70-	=70-	=70-	=70-	=70-
*custos:GG	*	*	*	*	*	*	*	*	*	*
1AA/	no-	0ryy	.	.	0ryy	.	0ryy	.	1.c\	-re-
!	!	!	!LO:TX:t=P:problem=kreska pseudotaktowa	!	!	!	!	!	!	!
.	.	.	2F/	.	.	.	.	.	.	.
*xywh-#611:5683,1351,4337,861	*	*	*	*	*	*	*	*	*	*
!LO:LB:g=original	!	!	!	!	!	!	!	!	!	!
!LO:TX:t=P:problem=kreska pseudotaktowa	!	!	!	!	!	!	!	!	!	!
1GG/	-bis	.	2G/,	-di	.	.	.	.	.	.
*	*Xij	*	*	*Xij	*	*	*	*	*	*
.	.	.	2d\	mi-	.	.	.	.	4B-/	.
!	!	!	!	!	!	!	!	!	!LO:TX:t=P:problem=kreska pseudotaktowa	!
.	.	.	.	.	.	.	.	.	4A/	.
=71-	=71-	=71-	=71-	=71-	=71-	=71-	=71-	=71-	=71-	=71-
2G\	mi-	0ryy	2d\	-ſe-	0ryy	.	0ryy	.	1B-/	-re-
!LO:TX:t=P:problem=kreska pseudotaktowa	!	!	!LO:TX:t=P:problem=kreska pseudotaktowa	!	!	!	!	!	!	!
2G\	-ſe-	.	2e\	-re-	.	.	.	.	.	.
2A\	-re-	.	1f\	-re	.	.	.	.	2c/	-mi-
2.B-\	-re	.	.	.	.	.	.	.	2.d/	-ſe-
=72-	=72-	=72-	=72-	=72-	=72-	=72-	=72-	=72-	=72-	=72-
.	.	0ryy	1B-\	no-	0ryy	.	0ryy	.	.	.
*	*	*	*	*	*	*	*	*	*custos:B-	*
4A\	.	.	.	.	.	.	.	.	4c/	.
*	*	*	*	*	*	*	*	*	*xywh-#54:1130,1406,4348,858	*
!	!	!	!	!	!	!	!	!	!LO:LB:g=original	!
!LO:TX:t=P:problem=kreska pseudotaktowa	!	!	!	!	!	!	!	!	!	!
2G\	.	.	.	.	.	.	.	.	1B-/	-re-
!	!	!	!LO:TX:t=P:problem=kreska pseudotaktowa	!	!	!	!	!	!	!
1F\	no-	.	1c\	-bis;	.	.	.	.	.	.
!	!	!	!	!	!	!	!	!	!LO:TX:t=P:problem=kreska pseudotaktowa	!
.	.	.	.	.	.	.	.	.	2A/	.
=73-	=73-	=73-	=73-	=73-	=73-	=73-	=73-	=73-	=73-	=73-
!LO:TX:t=P:problem=kreska pseudotaktowa	!	!	!	!	!	!	!	!	!	!
1BB-/	-bis;	0ryy	2r	.	0ryy	.	0ryy	.	2B-,/	-re
*	*	*	*	*ij	*	*	*	*	*	*Xij
.	.	.	2B-\	mi-	.	.	.	.	2d\	mi-
1r	.	.	2B-\	-ſe-	.	.	.	.	2d\	-ſe-
!	!	!	!LO:TX:t=P:problem=kreska pseudotaktowa	!	!	!	!	!	!LO:TX:t=P:problem=kreska pseudotaktowa	!
.	.	.	2c\	-re-	.	.	.	.	2e\	-re-
=74-	=74-	=74-	=74-	=74-	=74-	=74-	=74-	=74-	=74-	=74-
2r	.	0ryy	1.d\	-re	0ryy	.	0ryy	.	2.f\	-re
!LO:TX:t=P:problem=kreska pseudotaktowa	!	!	!	!	!	!	!	!	!	!
*	*ij	*	*	*	*	*	*	*	*	*
2BB-/	mi-	.	.	.	.	.	.	.	.	.
.	.	.	.	.	.	.	.	.	4d\	.
2BB-/	-ſe-	.	.	.	.	.	.	.	2f\	no-
2C/	-re-	.	4c\	no-	.	.	.	.	2.e\	.
!	!	!	!LO:TX:t=P:problem=kreska pseudotaktowa	!	!	!	!	!	!	!
.	.	.	4B-\	.	.	.	.	.	.	.
=75-	=75-	=75-	=75-	=75-	=75-	=75-	=75-	=75-	=75-	=75-
!LO:TX:t=P:problem=kreska pseudotaktowa	!	!	!	!	!	!	!	!	!	!
1D\	-re	0ryy	1A\	-bis	0ryy	.	0ryy	.	.	.
*	*	*	*	*Xij	*	*	*	*	*	*
.	.	.	.	.	.	.	.	.	4d\	.
.	.	.	.	.	.	.	.	.	1d\	.
2.E\	no-	.	2r	.	.	.	.	.	.	.
!	!	!	!LO:TX:t=P:problem=kreska pseudotaktowa	!	!	!	!	!	!	!
.	.	.	2G/	mi-	.	.	.	.	4c/	.
!	!	!	!	!	!	!	!	!	!LO:TX:t=P:problem=kreska pseudotaktowa	!
4D/	.	.	.	.	.	.	.	.	4B-/	-bis,
=76-	=76-	=76-	=76-	=76-	=76-	=76-	=76-	=76-	=76-	=76-
!LO:TX:t=P:problem=kreska pseudotaktowa	!	!	!	!	!	!	!	!	!	!
*	*	*	*	*	*	*	*	*	*	*ij
1C/	-bis	0ryy	2G/	-ſe-	0ryy	.	0ryy	.	1e\	mi-
*	*Xij	*	*	*	*	*	*	*	*	*
*	*	*	*custos:B-	*	*	*	*	*	*	*
!	!	!	!LO:TX:t=P:problem=kreska pseudotaktowa	!	!	!	!	!	!	!
.	.	.	2A/	-re-	.	.	.	.	.	.
*	*	*	*xywh-#438:5784,2749,4330,1002	*	*	*	*	*	*	*
!	!	!	!LO:LB:g=original	!	!	!	!	!	!	!
2r	.	.	1.B-\	-re	.	.	.	.	1.d\	-ſe-
!LO:TX:t=P:problem=kreska pseudotaktowa	!	!	!	!	!	!	!	!	!	!
2GG/	mi-	.	.	.	.	.	.	.	.	.
=77-	=77-	=77-	=77-	=77-	=77-	=77-	=77-	=77-	=77-	=77-
2GG/	-ſe-	0ryy	.	.	0ryy	.	0ryy	.	.	.
*custos:BB-	*	*	*	*	*	*	*	*	*	*
!LO:TX:t=P:problem=kreska pseudotaktowa	!	!	!	!	!	!	!	!	!LO:TX:t=P:problem=kreska pseudotaktowa	!
2AA/	-re	.	4A/	no-	.	.	.	.	2c/	.
.	.	.	4G/	.	.	.	.	.	.	.
*xywh-#611:5712,2050,4444,861	*	*	*	*	*	*	*	*	*	*
!LO:LB:g=original	!	!	!LO:TX:t=P:problem=kreska pseudotaktowa	!	!	!	!	!	!	!
2BB-/	re	.	1F/	-bis;	.	.	.	.	2d\	-re-
!LO:TX:t=P:problem=kreska pseudotaktowa	!	!	!	!	!	!	!	!	!	!
2AA/	.	.	.	.	.	.	.	.	4c/	.
!	!	!	!	!	!	!	!	!	!LO:TX:t=P:problem=kreska pseudotaktowa	!
.	.	.	.	.	.	.	.	.	4B-/	.
=78-	=78-	=78-	=78-	=78-	=78-	=78-	=78-	=78-	=78-	=78-
2.C/	no-	0ryy	0r	.	0ryy	.	0ryy	.	4A/	-re
.	.	.	.	.	.	.	.	.	4G/	.
*	*	*	*	*	*	*	*	*	*custos:F	*
.	.	.	.	.	.	.	.	.	1G/	no-
4BB-/	.	.	.	.	.	.	.	.	.	.
1AA/	.	.	.	.	.	.	.	.	.	.
*	*	*	*	*	*	*	*	*	*xywh-#54:1170,2126,4330,904	*
!	!	!	!	!	!	!	!	!	!LO:LB:g=original	!
!	!	!	!	!	!	!	!	!	!LO:TX:t=P:problem=kreska pseudotaktowa	!
.	.	.	.	.	.	.	.	.	2F/	.
=79-	=79-	=79-	=79-	=79-	=79-	=79-	=79-	=79-	=79-	=79-
!LO:TX:t=P:problem=kreska pseudotaktowa	!	!	!	!	!	!	!	!	!	!
0GG/	-bis;	0ryy	2r	.	0ryy	.	0ryy	.	1G/	-bis
!	!	!	!LO:TX:t=P:problem=kreska pseudotaktowa	!	!	!	!	!	!	!
*	*	*	*	*ij	*	*	*	*	*	*
.	.	.	2d\	mi-	.	.	.	.	.	.
.	.	.	2d\	-ſe-	.	.	.	.	2r	.
!	!	!	!	!	!	!	!	!	!LO:TX:t=P:problem=kreska pseudotaktowa	!
.	.	.	2e\	.	.	.	.	.	2G/	mi-
=80-	=80-	=80-	=80-	=80-	=80-	=80-	=80-	=80-	=80-	=80-
2r	.	0ryy	1.f\	-re-	0ryy	.	0ryy	.	2A/	-ſe-
!	!	!	!	!	!	!	!	!	!LO:TX:t=P:problem=kreska pseudotaktowa	!
*	*ij	*	*	*	*	*	*	*	*	*
2D/	mi-	.	.	.	.	.	.	.	2A/	-re-
2D/	-ſe-	.	.	.	.	.	.	.	1B-/	.
!LO:TX:t=P:problem=kreska pseudotaktowa	!	!	!	!	!	!	!	!	!	!
2E\	.	.	4e\	.	.	.	.	.	.	.
!	!	!	!LO:TX:t=P:problem=kreska pseudotaktowa	!	!	!	!	!	!	!
.	.	.	4d\	.	.	.	.	.	.	.
=81-	=81-	=81-	=81-	=81-	=81-	=81-	=81-	=81-	=81-	=81-
1.F\	-re-	0ryy	2c\	-re	0ryy	.	0ryy	.	2A/	-re
.	.	.	2A/	.	.	.	.	.	1c\	no-
.	.	.	2c\	no-	.	.	.	.	.	.
!LO:TX:t=P:problem=kreska pseudotaktowa	!	!	!	!	!	!	!	!	!	!
2D/	-re	.	2d\	.	.	.	.	.	1B-/	.
=82-	=82-	=82-	=82-	=82-	=82-	=82-	=82-	=82-	=82-	=82-
!	!	!	!LO:TX:t=P:problem=kreska pseudotaktowa	!	!	!	!	!	!	!
*	*	*	*	*Xij	*	*	*	*	*	*
2E\	no-	0ryy	1c\	-bis	0ryy	.	0ryy	.	.	.
!	!	!	!	!	!	!	!	!	!LO:TX:t=P:problem=kreska pseudotaktowa	!
2F\	.	.	.	.	.	.	.	.	2A/	.
!LO:TX:t=P:problem=kreska pseudotaktowa	!	!	!	!	!	!	!	!	!	!
1BB-/	-bis	.	2r	.	.	.	.	.	2B-/	-bis
*	*Xij	*	*	*	*	*	*	*	*	*Xij
.	.	.	2B-\	mi-	.	.	.	.	2d\	mi-
=83-	=83-	=83-	=83-	=83-	=83-	=83-	=83-	=83-	=83-	=83-
1r	.	0ryy	2B-\	-ſe-	0ryy	.	0ryy	.	2d\	-ſe-
!	!	!	!LO:TX:t=P:problem=kreska pseudotaktowa	!	!	!	!	!	!	!
!	!	!	!LO:TX:t=P:problem=poprawka wysokości	!	!	!	!	!	!LO:TX:t=P:problem=kreska pseudotaktowa	!
.	.	.	2c\	-re-	.	.	.	.	2e\	-re
2r	.	.	1.d\	-re-	.	.	.	.	2.f\	re
!LO:TX:t=P:problem=kreska pseudotaktowa	!	!	!	!	!	!	!	!	!	!
2BB-/	mi-	.	.	.	.	.	.	.	.	.
.	.	.	.	.	.	.	.	.	4d\	.
=84-	=84-	=84-	=84-	=84-	=84-	=84-	=84-	=84-	=84-	=84-
2BB-/	.	0ryy	.	.	0ryy	.	0ryy	.	2f\	no-
2C/	-ſe-	.	4c\	.	.	.	.	.	2.e\	.
*	*	*	*custos:A	*	*	*	*	*	*	*
!	!	!	!LO:TX:t=P:problem=kreska pseudotaktowa	!	!	!	!	!	!	!
.	.	.	4B-\	.	.	.	.	.	.	.
*	*	*	*xywh-#439:1268,538,4272,950	*	*	*	*	*	*	*
!	!	!	!LO:PB:g=original	!	!	!	!	!	!	!
2D/	-re-	.	2A/	-no-	.	.	.	.	.	.
.	.	.	.	.	.	.	.	.	4d\	.
!LO:TX:t=P:problem=kreska pseudotaktowa	!	!	!LO:TX:t=P:problem=kreska pseudotaktowa	!	!	!	!	!	!LO:TX:t=P:problem=kreska pseudotaktowa	!
2BB-/	-re	.	2B-/	.	.	.	.	.	2d\	.
=85-	=85-	=85-	=85-	=85-	=85-	=85-	=85-	=85-	=85-	=85-
*lig	*	*	*	*	*	*	*	*	*	*
1C/	no-	0ryy	2A/	.	0ryy	.	0ryy	.	2.c/	.
.	.	.	1G/	.	.	.	.	.	.	.
*	*	*	*	*	*	*	*	*	*custos:A	*
.	.	.	.	.	.	.	.	.	4B-/	.
*	*	*	*	*	*	*	*	*	*xywh-#54:1222,2834,4278,1347	*
!	!	!	!	!	!	!	!	!	!LO:LB:g=original	!
1D\	.	.	.	.	.	.	.	.	1A/	-bis;
.	.	.	2F/	.	.	.	.	.	.	.
*Xlig	*	*	*	*	*	*	*	*	*	*
=86-	=86-	=86-	=86-	=86-	=86-	=86-	=86-	=86-	=86-	=86-
*custos:D	*	*	*	*	*	*	*	*	*	*
0GGl/	-bis;	0ryy	0G\l;	-bis;	0ryy	.	0ryy	.	0Gl/	.
!LO:LB:g=original	!	!	!	!	!	!	!LO:PB:g=original	!	!	!
=87||-	=87||-	=87||-	=87||-	=87||-	=87||-	=87||-	=87||-	=87||-	=87||-	=87||-
*xywh-#611:5729,2731,4298,980	*	*	*	*	*	*	*	*xywh-#244:5755,560,4381,934	*	*
*M2/1	*	*	*	*	*	*	*	*	*	*
*met(C|)	*	*	*	*	*	*	*	*	*	*
!LO:TX:b:t=Cum Sex\nVocibus;	!	!	!LO:TX:a:t=Cum sex\nvocibus	!	!	!	!	!	!LO:TX:a:t=Cu(m) sex\nvocibus&colon;	!
0r	.	0ryy	00r	.	0ryy	.	0B-\	A-	00r	.
=88-	=88-	=88-	=88-	=88-	=88-	=88-	=88-	=88-	=88-	=88-
!LO:TX:t=P:problem=kreska pseudotaktowa	!	!	!	!	!	!	!LO:TX:t=P:problem=kreska pseudotaktowa	!	!	!
0D\	A-	0ryy	.	.	0ryy	.	0F/	-gnus	.	.
=89-	=89-	=89-	=89-	=89-	=89-	=89-	=89-	=89-	=89-	=89-
!LO:TX:t=P:problem=kreska pseudotaktowa	!	!	!	!	!LO:TX:t=P:problem=głos niezapisany, wynika z realizacji kanonu oznaczonego w Altus. 	!	!LO:TX:t=P:problem=signum congruentiae	!	!	!
1GG/	.	0ryy	00r	.	0B-/	A-	1G/	.	2.G/	A-
!	!	!	!	!	!	!	!	!	!LO:TX:t=P:problem=kreska pseudotaktowa	!
.	.	.	.	.	.	.	.	.	4A/	-gnus
1GG/	-gnus	.	.	.	.	.	1G/	De-	4B-/	.
.	.	.	.	.	.	.	.	.	4c/	.
.	.	.	.	.	.	.	.	.	1d\	De-
=90-	=90-	=90-	=90-	=90-	=90-	=90-	=90-	=90-	=90-	=90-
!	!	!	!	!	!LO:TX:t=P:problem=kreska pseudotaktowa	!	!LO:TX:t=P:problem=kreska pseudotaktowa	!	!	!
2.BB-/	De-	0ryy	.	.	0F/	-gnus	0d\	-i,	.	.
.	.	.	.	.	.	.	.	.	4c/	-i;
!LO:TX:t=P:problem=kreska pseudotaktowa	!	!	!	!	!	!	!	!	!LO:TX:t=P:problem=kreska pseudotaktowa	!
4C/	.	.	.	.	.	.	.	.	4B-/	.
1D\	.	.	.	.	.	.	.	.	1A/	.
=91-	=91-	=91-	=91-	=91-	=91-	=91-	=91-	=91-	=91-	=91-
!	!	!	!LO:TX:t=P:problem=kreska pseudotaktowa	!	!LO:TX:t=P:problem=signum congruentiae	!	!	!	!	!
1C/	.	0ryy	2.G/	A-	1G/	.	1e\	.	2r	.
*	*	*	*	*	*	*	*	*	*	*ij
.	.	.	.	.	.	.	.	.	2.G/	A-
.	.	.	4A/	.	.	.	.	.	.	.
!LO:TX:t=P:problem=kreska pseudotaktowa	!	!	!	!	!	!	!LO:TX:t=P:problem=kreska pseudotaktowa	!	!	!
1GG/	.	.	4B-/	.	1G/	De-	1d\	.	.	.
.	.	.	4c\	.	.	.	.	.	4A/	.
!	!	!	!	!	!	!	!	!	!LO:TX:t=P:problem=kreska pseudotaktowa	!
.	.	.	1d\	-gnus	.	.	.	.	2.B-/	.
=92-	=92-	=92-	=92-	=92-	=92-	=92-	=92-	=92-	=92-	=92-
!	!	!	!	!	!LO:TX:t=P:problem=kreska pseudotaktowa	!	!	!	!	!
2.BB-/	.	0ryy	.	.	0d\	-i,	00r	.	.	.
.	.	.	.	.	.	.	.	.	4c/	.
.	.	.	4c\	.	.	.	.	.	2.d\	.
!	!	!	!LO:TX:t=P:problem=kreska pseudotaktowa	!	!	!	!	!	!	!
4C/	.	.	4B-\	De-	.	.	.	.	.	.
*	*	*	*custos:G	*	*	*	*	*	*	*
1D\	.	.	1A\	-i;	.	.	.	.	.	.
.	.	.	.	.	.	.	.	.	4c/	.
!	!	!	!	!	!	!	!	!	!LO:TX:t=P:problem=kreska pseudotaktowa	!
.	.	.	.	.	.	.	.	.	2A/	-gnus
=93-	=93-	=93-	=93-	=93-	=93-	=93-	=93-	=93-	=93-	=93-
*	*	*	*	*	*	*	*	*	*custos:B-	*
!LO:TX:t=P:problem=kreska pseudotaktowa	!	!	!	!	!	!	!	!	!	!
1C/	-i,	0ryy	2r	.	1e\	.	.	.	1c\	De-
*	*	*	*xywh-#439:1239,1226,4301,967	*	*	*	*	*	*	*
!	!	!	!LO:LB:g=original	!	!	!	!	!	!	!
!	!	!	!LO:TX:t=P:problem=kreska pseudotaktowa	!	!	!	!	!	!	!
*	*	*	*	*ij	*	*	*	*	*	*
.	.	.	[y2G/	A-	.	.	.	.	.	.
*	*	*	*	*	*	*	*	*	*xywh-#54:5884,582,4307,961	*
!	!	!	!	!	!	!	!	!	!LO:PB:g=original	!
!	!	!	!LO:N:xstem:cue 	!	!LO:TX:t=P:problem=kreska pseudotaktowa	!	!	!	!LO:TX:t=P:problem=kreska pseudotaktowa	!
1.G\	qui	.	4G/]	.	1d\	.	.	.	1B-/	-i
*	*	*	*	*	*	*	*	*	*	*Xij
.	.	.	4A/	.	.	.	.	.	.	.
.	.	.	2.B-\	.	.	.	.	.	.	.
=94-	=94-	=94-	=94-	=94-	=94-	=94-	=94-	=94-	=94-	=94-
.	.	0ryy	.	.	00r	.	1d\	qui	1r	.
.	.	.	4A\	.	.	.	.	.	.	.
!LO:TX:t=P:problem=kreska pseudotaktowa	!	!	!	!	!	!	!	!	!	!
2D/	quo	.	1A\	.	.	.	.	.	.	.
*custos:G	*	*	*	*	*	*	*	*	*	*
2F\	.	.	.	.	.	.	2c\	.	2r	.
*xywh-#612:1044,470,4326,946	*	*	*	*	*	*	*	*	*	*
!LO:PB:g=original	!	!	!	!	!	!	!	!	!	!
!LO:TX:t=P:problem=kreska pseudotaktowa	!	!	!	!	!	!	!LO:TX:t=P:problem=kreska pseudotaktowa	!	!LO:TX:t=P:problem=kreska pseudotaktowa	!
2G\	tol-	.	4G/	.	.	.	2B-\	tol-	2g\	qui
!	!	!	!LO:TX:t=P:problem=kreska pseudotaktowa	!	!	!	!	!	!	!
.	.	.	4F/	.	.	.	.	.	.	.
=95-	=95-	=95-	=95-	=95-	=95-	=95-	=95-	=95-	=95-	=95-
1E\	.	0ryy	1G/	-gnus	.	.	1c\	-lis;	2g\	tol-
.	.	.	.	.	.	.	.	.	2g\	-lis
!LO:TX:t=P:problem=kreska pseudotaktowa	!	!	!	!	!	!	!LO:TX:t=P:problem=kreska pseudotaktowa	!	!	!
1D\	-lis	.	1A\	De-	.	.	1d\	.	2.f\	pec-
!	!	!	!	!	!	!	!	!	!LO:TX:t=P:problem=kreska pseudotaktowa	!
.	.	.	.	.	.	.	.	.	4e\	.
=96-	=96-	=96-	=96-	=96-	=96-	=96-	=96-	=96-	=96-	=96-
0r	.	0ryy	1B-\	.	1d\	qui	00r	.	2d/	-ca-
.	.	.	.	.	.	.	.	.	2B-/	.
.	.	.	2A/	.	2c\	.	.	.	2c/	-ta
!	!	!	!LO:TX:t=P:problem=kreska pseudotaktowa	!	!LO:TX:t=P:problem=kreska pseudotaktowa	!	!	!	!LO:TX:t=P:problem=kreska pseudotaktowa	!
.	.	.	2G/	.	2B-/	tol-	.	.	2d/	mun-
=97-	=97-	=97-	=97-	=97-	=97-	=97-	=97-	=97-	=97-	=97-
!LO:TX:t=P:problem=kreska pseudotaktowa	!	!	!	!	!	!	!	!	!	!
1r	.	0ryy	1A\	.	1c\	-lis;	.	.	2c/	.
.	.	.	.	.	.	.	.	.	2A/	.
!	!	!	!	!	!LO:TX:t=P:problem=kreska pseudotaktowa	!	!	!	!	!
2.GG/	pec-	.	1G/	-i,	1d\	.	.	.	1.B-/	.
*	*	*	*	*Xij	*	*	*	*	*	*
!LO:TX:t=P:problem=kreska pseudotaktowa	!	!	!	!	!	!	!	!	!	!
4AA/	-ca-	.	.	.	.	.	.	.	.	.
=98-	=98-	=98-	=98-	=98-	=98-	=98-	=98-	=98-	=98-	=98-
!	!	!	!LO:TX:t=P:problem=kreska pseudotaktowa	!	!	!	!	!	!	!
4BB-/	.	0ryy	1D/	qui	00r	.	0d\	pec-	.	.
4C/	.	.	.	.	.	.	.	.	.	.
1D\	.	.	.	.	.	.	.	.	4A/	.
!	!	!	!	!	!	!	!	!	!LO:TX:t=P:problem=kreska pseudotaktowa	!
.	.	.	.	.	.	.	.	.	4G/	.
.	.	.	1F/	tol-	.	.	.	.	2A/	.
!LO:TX:t=P:problem=kreska pseudotaktowa	!	!	!	!	!	!	!	!	!	!
2BB-/	-ta	.	.	.	.	.	.	.	2B-/	.
=99-	=99-	=99-	=99-	=99-	=99-	=99-	=99-	=99-	=99-	=99-
!	!	!	!	!	!	!	!LO:TX:t=P:problem=kreska pseudotaktowa	!	!	!
2.C/	mun-	0ryy	1E/	.	.	.	0c\	-ca-	2A/	.
.	.	.	.	.	.	.	.	.	1G/	.
4BB-/	.	.	.	.	.	.	.	.	.	.
!	!	!	!LO:TX:t=P:problem=kreska pseudotaktowa	!	!	!	!	!	!	!
1AA/	.	.	1C/	-lis	.	.	.	.	.	.
.	.	.	.	.	.	.	.	.	2F/	-di;
=100-	=100-	=100-	=100-	=100-	=100-	=100-	=100-	=100-	=100-	=100-
*	*	*	*	*	*	*	*	*	*custos:g	*
!LO:TX:t=P:problem=kreska pseudotaktowa	!	!	!	!	!	!	!	!	!LO:TX:t=P:problem=kreska pseudotaktowa	!
0GG/	-di;	0ryy	2D/	pec-	0d\	pec-	0B-\	-ta	1G/	.
.	.	.	1G/	-ca-	.	.	.	.	.	.
*	*	*	*	*	*	*	*	*	*xywh-#54:5795,1348,4273,961	*
!	!	!	!	!	!	!	!	!	!LO:LB:g=original	!
.	.	.	.	.	.	.	.	.	2.g\	pec-
!	!	!	!LO:TX:t=P:problem=kreska pseudotaktowa	!	!	!	!	!	!	!
.	.	.	2F/	-ta	.	.	.	.	.	.
!	!	!	!	!	!	!	!	!	!LO:TX:t=P:problem=kreska pseudotaktowa	!
.	.	.	.	.	.	.	.	.	4f\	.
=101-	=101-	=101-	=101-	=101-	=101-	=101-	=101-	=101-	=101-	=101-
*	*	*	*	*	*	*	*custos:G	*	*	*
*	*	*	*custos:E	*	*	*	*	*	*	*
!	!	!	!	!	!LO:TX:t=P:problem=kreska pseudotaktowa	!	!LO:TX:t=P:problem=kreska pseudotaktowa	!	!	!
0C/	do-	0ryy	1G/	.	0c\	-ca-	1c\	mu(n)-	4e\	.
.	.	.	.	.	.	.	.	.	4d\	.
.	.	.	.	.	.	.	.	.	2.c/	-ca-
*	*	*	*xywh-#439:1274,1942,4267,933	*	*	*	*xywh-#244:5728,1278,4278,883	*	*	*
!	!	!	!LO:LB:g=original	!	!	!	!LO:LB:g=original	!	!	!
!	!	!	!	!	!	!	!LO:TX:t=P:problem=kreska pseudotaktowa	!	!	!
.	.	.	2.E/	mun-	.	.	0G/	-di,	.	.
.	.	.	.	.	.	.	.	.	4B-/	-ta
!	!	!	!	!	!	!	!	!	!LO:TX:t=P:problem=kreska pseudotaktowa	!
.	.	.	.	.	.	.	.	.	2.G/	.
!	!	!	!LO:TX:t=P:problem=kreska pseudotaktowa	!	!	!	!	!	!	!
.	.	.	4F/	.	.	.	.	.	.	.
=102-	=102-	=102-	=102-	=102-	=102-	=102-	=102-	=102-	=102-	=102-
1GG/	.	0ryy	4G/	.	0B-/	-ta	.	.	.	.
.	.	.	4A/	.	.	.	.	.	4A/	.
.	.	.	2G/	.	.	.	.	.	2.B-/	.
!LO:TX:t=P:problem=kreska pseudotaktowa	!	!	!	!	!	!	!LO:TX:a:t=7	!	!	!
1D\	-na	.	2F/	.	.	.	1r	.	.	.
.	.	.	.	.	.	.	.	.	4A/	.
!	!	!	!LO:TX:t=P:problem=kreska pseudotaktowa	!	!	!	!	!	!LO:TX:t=P:problem=kreska pseudotaktowa	!
.	.	.	2D/	-di;	.	.	.	.	2F/	.
=103-	=103-	=103-	=103-	=103-	=103-	=103-	=103-	=103-	=103-	=103-
*	*	*	*	*	*custos:G	*	*	*	*	*
!	!	!	!	!	!LO:TX:t=P:problem=kreska pseudotaktowa	!	!	!	!	!
2C/	no-	0ryy	2r	.	1c\	mu(n)-	00r	.	2.G/	mun-
*	*	*	*	*ij	*	*	*	*	*	*
2.E\	-bis	.	2.G/	mun-	.	.	.	.	.	.
.	.	.	.	.	.	.	.	.	4A/	.
!	!	!	!	!	!LO:LB:g=original	!	!	!	!	!
!	!	!	!	!	!LO:TX:t=P:problem=kreska pseudotaktowa	!	!	!	!	!
.	.	.	.	.	0G/	-di,	.	.	4B-/	.
*custos:BB-	*	*	*	*	*	*	*	*	*	*
4D/	pa-	.	4A/	.	.	.	.	.	4c/	.
*xywh-#612:1016,1236,4399,935	*	*	*	*	*	*	*	*	*	*
!LO:LB:g=original	!	!	!LO:TX:t=P:problem=kreska pseudotaktowa	!	!	!	!	!	!	!
2BB-/	.	.	2B-\	-di;	.	.	.	.	1d\	.
=104-	=104-	=104-	=104-	=104-	=104-	=104-	=104-	=104-	=104-	=104-
1C/	.	0ryy	2.G/	qui	.	.	.	.	.	.
!	!	!	!	!	!	!	!	!	!LO:TX:t=P:problem=kreska pseudotaktowa	!
.	.	.	.	.	.	.	.	.	2c/	-di;
.	.	.	4A/	.	.	.	.	.	.	.
!	!	!	!	!	!LO:TX:a:t=7	!	!	!	!	!
2GG/	-cem	.	4B-\	.	00r	.	.	.	1d\	.
.	.	.	4c\	.	.	.	.	.	.	.
1G\	.	.	2.d\	tol-	.	.	.	.	.	.
=105-	=105-	=105-	=105-	=105-	=105-	=105-	=105-	=105-	=105-	=105-
.	.	0ryy	.	.	.	.	0r	.	2r	.
.	.	.	4c\	.	.	.	.	.	.	.
!	!	!	!	!	!	!	!	!	!LO:TX:t=P:problem=kreska pseudotaktowa	!
4F\	do-	.	1c\	.	.	.	.	.	2f\	do-
!LO:TX:t=P:problem=kreska pseudotaktowa	!	!	!	!	!	!	!	!	!	!
4E\	.	.	.	.	.	.	.	.	.	.
2D/	-na	.	.	.	.	.	.	.	2f\	-na
*	*	*	*	*	*	*	*	*	*custos:e	*
!	!	!	!LO:TX:t=P:problem=kreska pseudotaktowa	!	!	!	!	!	!	!
2D/	no-	.	2B-\	.	.	.	.	.	2f\	no-
!	!	!	!	!	!	!	!	!	!LO:LB:g=original	!
=106-	=106-	=106-	=106-	=106-	=106-	=106-	=106-	=106-	=106-	=106-
*	*	*	*	*	*	*	*	*	*xywh-#54:5806,2114,4313,898	*
!	!	!	!	!	!	!	!LO:TX:t=P:problem=kreska pseudotaktowa	!	!	!
1.C/	-bis	0ryy	2c\	-lis	.	.	2r	.	2.e\	-bis
!	!	!	!	!	!	!	!LO:TX:t=P:problem=kreska pseudotaktowa	!	!	!
*	*	*	*	*	*	*	*	*ij	*	*
.	.	.	4C/	pec-	.	.	2c\	pec-	.	.
!	!	!	!LO:TX:t=P:problem=kreska pseudotaktowa	!	!	!	!	!	!LO:TX:t=P:problem=kreska pseudotaktowa	!
.	.	.	4D/	.	.	.	.	.	4d\	.
.	.	.	4E/	.	0r	.	2c\	-ca-	2c/	.
*	*	*	*custos:G	*	*	*	*	*	*	*
.	.	.	4F/	.	.	.	.	.	.	.
*	*	*	*xywh-#439:1199,2681,4381,985	*	*	*	*	*	*	*
!	!	!	!LO:LB:g=original	!	!	!	!	!	!	!
!LO:TX:t=P:problem=kreska pseudotaktowa	!	!	!	!	!	!	!	!	!	!
2GG/	.	.	1G/	-ca-	.	.	2d\	-ta	2B-/	.
=107-	=107-	=107-	=107-	=107-	=107-	=107-	=107-	=107-	=107-	=107-
!	!	!	!	!	!	!	!	!	!LO:TX:t=P:problem=kreska pseudotaktowa	!
1AA/	pa-	0ryy	.	.	.	.	1c\	m(un)-	1A/	.
!	!	!	!LO:TX:t=P:problem=kreska pseudotaktowa	!	!	!	!	!	!	!
.	.	.	2F/	-ta	.	.	.	.	.	.
*	*	*	*	*Xij	*	*	*	*	*	*
!	!	!	!	!	!	!	!LO:TX:t=P:problem=kreska pseudotaktowa	!	!	!
2GG/	-ce(m);	.	2.G/	mun-	1r	.	1B-\	-di	2.d\	pa-
*	*ij	*	*	*	*	*	*	*Xij	*	*
1G\	do-	.	.	.	.	.	.	.	.	.
.	.	.	4A/	.	.	.	.	.	4c/	.
=108-	=108-	=108-	=108-	=108-	=108-	=108-	=108-	=108-	=108-	=108-
!	!	!	!	!	!LO:TX:t=P:problem=kreska pseudotaktowa	!	!	!	!	!
.	.	0ryy	2B-\	.	2r	.	00r	.	2B-/	.
!	!	!	!	!	!LO:TX:t=P:problem=kreska pseudotaktowa	!	!	!	!LO:TX:t=P:problem=kreska pseudotaktowa	!
*	*	*	*	*	*	*ij	*	*	*	*
4F\	.	.	2.A/	.	2c\	pec-	.	.	2c/	.
!LO:TX:t=P:problem=kreska pseudotaktowa	!	!	!	!	!	!	!	!	!	!
4E\	.	.	.	.	.	.	.	.	.	.
2F\	.	.	.	.	2c\	-ca-	.	.	1F/	-cem;
.	.	.	4F/	.	.	.	.	.	.	.
2D/	-na	.	1B-\	.	2d\	-ta	.	.	.	.
=109-	=109-	=109-	=109-	=109-	=109-	=109-	=109-	=109-	=109-	=109-
2E\	no-	0ryy	.	.	1c\	m(un)-	.	.	2r	.
!LO:TX:t=P:problem=kreska pseudotaktowa	!	!	!LO:TX:t=P:problem=kreska pseudotaktowa	!	!	!	!	!	!LO:TX:t=P:problem=kreska pseudotaktowa	!
*	*	*	*	*	*	*	*	*	*	*ij
2F\	.	.	2A/	.	.	.	.	.	2f\	do-
!	!	!	!LO:TX:t=P:problem=kreska pseudotaktowa	!	!LO:TX:t=P:problem=kreska pseudotaktowa	!	!	!	!	!
1BB-/	-bis	.	0B-\	-di;	1B-/	-di	.	.	2f\	-na
*	*	*	*	*	*	*Xij	*	*	*	*
.	.	.	.	.	.	.	.	.	2f\	no-
=110-	=110-	=110-	=110-	=110-	=110-	=110-	=110-	=110-	=110-	=110-
!	!	!	!	!	!	!	!LO:TX:t=P:problem=kreska pseudotaktowa	!	!	!
1.E\	pa-	0ryy	.	.	00r	.	1r	.	1.g\	.
.	.	.	2r	.	.	.	1B-\	do-	.	.
*custos:C	*	*	*	*	*	*	*	*	*	*
!	!	!	!LO:TX:t=P:problem=jeszcze znak powtórki tekstu	!	!	!	!	!	!	!
!LO:TX:t=P:problem=kreska pseudotaktowa	!	!	!LO:TX:t=P:problem=kreska pseudotaktowa	!	!	!	!	!	!	!
2D/	.	.	2F/	pec-	.	.	.	.	1f\	.
!LO:LB:g=original	!	!	!	!	!	!	!	!	!	!
=111-	=111-	=111-	=111-	=111-	=111-	=111-	=111-	=111-	=111-	=111-
*xywh-#612:993,1991,4405,918	*	*	*	*	*	*	*	*	*	*
1C/	.	0ryy	1G/	.	.	.	1.c\	-na	.	.
!	!	!	!	!	!	!	!	!	!LO:TX:t=P:problem=kreska pseudotaktowa	!
.	.	.	.	.	.	.	.	.	2e\	.
2F\	.	.	2A/	-ca-	.	.	.	.	2.f\	.
!LO:TX:t=P:problem=kreska pseudotaktowa	!	!	!LO:TX:t=P:problem=kreska pseudotaktowa	!	!	!	!LO:TX:t=P:problem=kreska pseudotaktowa	!	!	!
2BB-/	.	.	2B-\	.	.	.	2B-\	no-	.	.
.	.	.	.	.	.	.	.	.	4e\	.
=112-	=112-	=112-	=112-	=112-	=112-	=112-	=112-	=112-	=112-	=112-
*	*	*	*	*	*	*	*	*	*custos:d	*
!LO:TX:t=P:problem=kreska pseudotaktowa	!	!	!	!	!LO:TX:t=P:problem=kreska pseudotaktowa	!	!	!	!LO:TX:t=P:problem=kreska pseudotaktowa	!
1F\	-ce(m)	0ryy	2c\	-ta	1r	.	1A\	-bis	1c\	-bis
*	*Xij	*	*	*	*	*	*	*	*	*
.	.	.	2F/	mun-	.	.	.	.	.	.
*	*	*	*	*	*	*	*	*	*xywh-#54:5823,2713,4238,1048	*
!	!	!	!	!	!	!	!	!	!LO:LB:g=original	!
1r	.	.	2B-\	.	1B-/	do-	1G/	pa-	2.d\	pa-
!	!	!	!LO:TX:t=P:problem=kreska pseudotaktowa	!	!	!	!	!	!	!
.	.	.	2G/	.	.	.	.	.	.	.
.	.	.	.	.	.	.	.	.	4e\	.
=113-	=113-	=113-	=113-	=113-	=113-	=113-	=113-	=113-	=113-	=113-
!	!	!	!	!	!	!	!LO:TX:t=P:problem=kreska pseudotaktowa	!	!LO:TX:t=P:problem=kreska pseudotaktowa	!
2r	.	0ryy	1.A\	-di;	1.c\	-na	1F/	-ce(m);	1f\	-cem
*	*	*	*	*	*	*	*	*	*	*Xij
1F\	do-	.	.	.	.	.	.	.	.	.
.	.	.	.	.	.	.	00r	.	1r	.
!LO:TX:t=P:problem=kreska pseudotaktowa	!	!	!LO:TX:t=P:problem=kreska pseudotaktowa	!	!LO:TX:t=P:problem=kreska pseudotaktowa	!	!	!	!	!
*	*	*	*	*ij	*	*	*	*	*	*
2G\	-na	.	2B-\	pec-	2B-/	no-	.	.	.	.
=114-	=114-	=114-	=114-	=114-	=114-	=114-	=114-	=114-	=114-	=114-
*	*	*	*custos:d	*	*	*	*	*	*	*
2F\	no-	0ryy	2c\	.	1A/	-bis	.	.	2r	.
*	*	*	*xywh-#439:5826,618,4593,967	*	*	*	*	*	*	*
!	!	!	!LO:PB:g=original	!	!	!	!	!	!	!
!	!	!	!LO:TX:t=P:problem=kreska pseudotaktowa	!	!	!	!	!	!LO:TX:t=P:problem=kreska pseudotaktowa	!
2D/	.	.	2d\	.	.	.	.	.	2f\	do-
!LO:TX:t=P:problem=kreska pseudotaktowa	!	!	!	!	!	!	!	!	!	!
1E\	-bis	.	1G/	-ca-	1G/	pa-	.	.	2g\	-na
.	.	.	.	.	.	.	.	.	2e\	no-
=115-	=115-	=115-	=115-	=115-	=115-	=115-	=115-	=115-	=115-	=115-
!	!	!	!	!	!LO:TX:t=P:problem=kreska pseudotaktowa	!	!	!	!	!
2.D/	pa-	0ryy	2A/	-ta	1F/	-ce(m);	.	.	2f\	-bis
*	*	*	*	*Xij	*	*	*	*	*	*
!	!	!	!LO:TX:t=P:problem=kreska pseudotaktowa	!	!	!	!	!	!	!
.	.	.	2D/	mun-	.	.	.	.	1d\	.
8C/L	.	.	.	.	.	.	.	.	.	.
8BB-/J	.	.	.	.	.	.	.	.	.	.
!LO:TX:t=P:problem=kreska pseudotaktowa	!	!	!	!	!	!	!	!	!	!
*	*	*	*	*	*	*	*	*ij	*	*
1AA/	.	.	2E/	.	00r	.	1A\	do-	.	.
!	!	!	!	!	!	!	!	!	!LO:TX:t=P:problem=kreska pseudotaktowa	!
.	.	.	2F/	-di;	.	.	.	.	2c/	.
=116-	=116-	=116-	=116-	=116-	=116-	=116-	=116-	=116-	=116-	=116-
!	!	!	!LO:TX:t=P:problem=kreska pseudotaktowa	!	!	!	!LO:TX:t=P:problem=kreska pseudotaktowa	!	!	!
2GG/	-cem;	0ryy	1G/	.	.	.	0B-\	-na	2B-/	.
2G\	.	.	.	.	.	.	.	.	4G/	pa-
!	!	!	!	!	!	!	!	!	!LO:TX:t=P:problem=kreska pseudotaktowa	!
.	.	.	.	.	.	.	.	.	4A/	.
2G\	do-	.	1r	.	.	.	.	.	4B-/	.
.	.	.	.	.	.	.	.	.	4c/	.
!LO:TX:t=P:problem=kreska pseudotaktowa	!	!	!	!	!	!	!	!	!	!
2G\	-na	.	.	.	.	.	.	.	4d/	.
!	!	!	!	!	!	!	!	!	!LO:TX:t=P:problem=kreska pseudotaktowa	!
.	.	.	.	.	.	.	.	.	4e\	.
=117-	=117-	=117-	=117-	=117-	=117-	=117-	=117-	=117-	=117-	=117-
2F\	no-	0ryy	0r	.	.	.	2A/	no-	4f\	.
.	.	.	.	.	.	.	.	.	4e\	.
*	*	*	*	*	*	*	*custos:A	*	*	*
2E\	-bis	.	.	.	.	.	2G/	-bis	1g\	.
*custos:GG	*	*	*	*	*	*	*	*	*	*
*	*	*	*	*	*	*	*xywh-#244:5717,2013,4273,905	*	*	*
!	!	!	!	!	!	!	!LO:LB:g=original	!	!	!
!LO:TX:t=P:problem=kreska pseudotaktowa	!	!	!	!	!	!	!	!	!	!
*	*	*	*	*	*	*ij	*	*	*	*
1D\	pa-	.	.	.	1A/	do-	1A\	pa-	.	.
*	*	*	*	*	*	*	*	*	*custos:g	*
!	!	!	!	!	!	!	!	!	!LO:TX:t=P:problem=kreska pseudotaktowa	!
.	.	.	.	.	.	.	.	.	2f\	.
!LO:LB:g=original	!	!	!	!	!	!	!	!	!LO:PB:g=original	!
=118-	=118-	=118-	=118-	=118-	=118-	=118-	=118-	=118-	=118-	=118-
*xywh-#612:965,2740,4303,946	*	*	*	*	*	*	*	*	*xywh-#55:1198,574,4157,932	*
!LO:TX:t=P:problem=kreska pseudotaktowa	!	!	!LO:TX:t=P:problem=kreska pseudotaktowa	!	!LO:TX:t=P:problem=kreska pseudotaktowa	!	!LO:TX:t=P:problem=kreska pseudotaktowa	!	!LO:TX:t=P:problem=kreska pseudotaktowa	!
0GG/	-cem,	0ryy	2r	.	0B-/	-na	0G/	-ce(m)	1g\	-cem,
*	*	*	*	*	*	*	*	*Xij	*	*
.	.	.	2G/	do-	.	.	.	.	.	.
.	.	.	2G/	-na	.	.	.	.	2r	.
!	!	!	!LO:TX:t=P:problem=kreska pseudotaktowa	!	!	!	!	!	!LO:TX:t=P:problem=kreska pseudotaktowa	!
.	.	.	2G/	no-	.	.	.	.	2d\	do-
=119-	=119-	=119-	=119-	=119-	=119-	=119-	=119-	=119-	=119-	=119-
0r	.	0ryy	2F/	-bis	2A/	no-	1r	.	2d\	-na
*	*	*	*	*	*custos:A	*	*	*	*	*
.	.	.	2E/	pa-	2G/	-bis	.	.	2c/	no-
!	!	!	!	!	!LO:LB:g=original	!	!	!	!	!
!	!	!	!LO:TX:t=P:problem=kreska pseudotaktowa	!	!	!	!	!	!LO:TX:t=P:problem=kreska pseudotaktowa	!
.	.	.	1D/	-ce(m);	1A/	pa-	1A\	do-	0.d\	-bis,
=120-	=120-	=120-	=120-	=120-	=120-	=120-	=120-	=120-	=120-	=120-
!	!	!	!	!	!LO:TX:t=P:problem=kreska pseudotaktowa	!	!LO:TX:t=P:problem=kreska pseudotaktowa	!	!	!
2r	.	0ryy	1r	.	0G/	-ce(m)	0B-\	-na	.	.
*	*ij	*	*	*	*	*Xij	*	*	*	*
!LO:TX:t=P:problem=kreska pseudotaktowa	!	!	!	!	!	!	!	!	!	!
2G\	do-	.	.	.	.	.	.	.	.	.
2G\	-na	.	2r	.	.	.	.	.	.	.
!	!	!	!LO:TX:t=P:problem=kreska pseudotaktowa	!	!	!	!	!	!	!
*	*	*	*	*ij	*	*	*	*	*	*
2G\	no-	.	2d\	do-	.	.	.	.	.	.
=121-	=121-	=121-	=121-	=121-	=121-	=121-	=121-	=121-	=121-	=121-
2F\	.	0ryy	2d\	-na	1r	.	2A/	no-	1r	.
!LO:TX:t=P:problem=kreska pseudotaktowa	!	!	!	!	!	!	!	!	!	!
2E\	-bis	.	2c\	no-	.	.	2G/	-bis	.	.
*	*	*	*custos:G	*	*	*	*	*	*	*
!	!	!	!LO:TX:t=P:problem=kreska pseudotaktowa	!	!	!	!	!	!	!
1D\	pa-	.	1d\	-bis	1A/	do-	1A\	pa-	2r	.
!	!	!	!	!	!	!	!	!	!LO:TX:t=P:problem=kreska pseudotaktowa	!
*	*	*	*	*Xij	*	*	*	*	*	*ij
.	.	.	.	.	.	.	.	.	2d\	do-
=122-	=122-	=122-	=122-	=122-	=122-	=122-	=122-	=122-	=122-	=122-
!	!	!	!	!	!	!	!LO:TX:t=P:problem=kreska pseudotaktowa	!	!	!
!LO:TX:t=P:problem=kreska pseudotaktowa	!	!	!	!	!	!	!LO:TX:t=P:problem=signum congruentiae	!	!	!
0GG/	-cem	0ryy	2r	.	0B-/	-na	0G/	-ce(m);	2d\	-na
*	*Xij	*	*	*	*	*	*	*	*	*
*	*	*	*xywh-#439:5896,1329,4599,1179	*	*	*	*	*	*	*
!	!	!	!LO:LB:g=original	!	!	!	!	!	!	!
!	!	!	!LO:TX:t=P:problem=kreska pseudotaktowa	!	!	!	!	!	!	!
.	.	.	2G/	do-	.	.	.	.	2.d\	no-
.	.	.	2G/	-na	.	.	.	.	.	.
.	.	.	.	.	.	.	.	.	4c/	.
!	!	!	!LO:TX:t=P:problem=kreska pseudotaktowa	!	!	!	!	!	!	!
.	.	.	2G/	no-	.	.	.	.	4d/	.
!	!	!	!	!	!	!	!	!	!LO:TX:t=P:problem=kreska pseudotaktowa	!
.	.	.	.	.	.	.	.	.	4e\	.
=123-	=123-	=123-	=123-	=123-	=123-	=123-	=123-	=123-	=123-	=123-
0r	.	0ryy	2F/	-bis	2A/	no-	1r	.	2f\	-bis
*	*	*	*	*	*	*	*	*	*	*Xij
.	.	.	2E/	pa-	2G/	-bis	.	.	1g\	pa-
!	!	!	!LO:TX:t=P:problem=kreska pseudotaktowa	!	!	!	!	!	!	!
.	.	.	1D/	-ce(m);	1A/	pa-	2r	.	.	.
!	!	!	!	!	!	!	!LO:TX:t=P:problem=kreska pseudotaktowa	!	!	!
*	*	*	*	*	*	*	*	*ij	*	*
.	.	.	.	.	.	.	2d\	do-	2f\	.
=124-	=124-	=124-	=124-	=124-	=124-	=124-	=124-	=124-	=124-	=124-
0GG/	do-	0ryy	2r	.	000G/;	-cem.	2d\	-na	000g\;	-cem
.	.	.	2D/	.	.	.	2d\	no-	.	.
!	!	!	!	!	!	!	!LO:TX:t=P:problem=kreska pseudotaktowa	!	!	!
.	.	.	2D/	.	.	.	1B-\	-bis	.	.
!	!	!	!LO:TX:t=P:problem=kreska pseudotaktowa	!	!	!	!	!	!	!
.	.	.	2D/	.	.	.	.	.	.	.
=125-	=125-	=125-	=125-	=125-	=125-	=125-	=125-	=125-	=125-	=125-
!LO:TX:t=P:problem=kreska pseudotaktowa	!	!	!	!	!	!	!	!	!	!
1C/	-na	0ryy	2E/	.	.	.	1c\	do-	.	.
.	.	.	2.G/	pa-	.	.	.	.	.	.
1.C/	no-	.	.	.	.	.	2.G/	-na	.	.
.	.	.	4F/	.	.	.	.	.	.	.
.	.	.	4E/	.	.	.	.	.	.	.
!	!	!	!LO:TX:t=P:problem=kreska pseudotaktowa	!	!	!	!LO:TX:t=P:problem=kreska pseudotaktowa	!	!	!
.	.	.	4D/	.	.	.	4F/	.	.	.
=126-	=126-	=126-	=126-	=126-	=126-	=126-	=126-	=126-	=126-	=126-
.	.	0ryy	2C/	.	.	.	4G/	.	.	.
*	*	*	*	*	*	*	*custos:B-	*	*	*
.	.	.	.	.	.	.	4A/	.	.	.
*	*	*	*	*	*	*	*xywh-#244:5779,2799,4136,678	*	*	*
!	!	!	!	!	!	!	!LO:LB:g=original	!	!	!
!	!	!	!	!	!	!	!LO:TX:t=P:problem=kreska pseudotaktowa	!	!	!
2BB-/	-bis	.	2D/	.	.	.	2B-\	no-	.	.
1C/	pa-	.	1E/	.	.	.	2G/	-bis	.	.
.	.	.	.	.	.	.	1c\	pa-	.	.
=127-	=127-	=127-	=127-	=127-	=127-	=127-	=127-	=127-	=127-	=127-
0GGl/	-cem.	0ryy	0Dl/	-cem;	.	.	.	.	.	.
.	.	.	.	.	.	.	4B-\	.	.	.
.	.	.	.	.	.	.	4A\	.	.	.
!	!	!	!	!	!	!	!LO:TX:t=P:problem=jest adnotacja o szóstym głosie, ale szóstego głosu w rękopisie brak. \nGdyby w przyszłości ktoś chciał go uzupełnić, to mam spisany ze starodruku prawdopodobnie będącego bazą dla Kk I.1.  	!	!	!
!	!	!	!	!	!	!	!LO:TX:b:t=Sexta pars;	!	!	!
.	.	.	.	.	.	.	1B-\l;	-ce(m)	.	.
==	==	==	==	==	==	==	==	==	==	==
*-	*-	*-	*-	*-	*-	*-	*-	*-	*-	*-
!!!system-decoration: s1,s2,s3,s4,s5,s6
!!!RDF**kern: l = terminal long
!!!ENC: Mateusz Solarz
!!!END: 2022-02-09
!!!ENC: Leszek Kubiak
!!!END: 2022-02-12
!!!ENC-iiif: Antoni Szymański
!!!END-iiif: 2022-09-03
